X:1
T:Danse Macabre
T:Danse Macabre
T:For 3 Pianos
%%score { 1 | 2 } { ( 3 5 ) | 4 } { ( 6 8 ) | 7 }
L:1/8
Q:3/4=62
M:3/4
K:Bb
V:1 treble nm="Piano 1" snm="Pno. 1"
V:2 bass 
V:3 treble nm="Piano 2" snm="Pno. 2"
V:5 treble 
V:4 bass 
V:6 treble nm="Piano 3" snm="Pno. 3"
V:8 treble 
V:7 bass 
V:1
!p!"^\n\n" D6 | D6 | D6 | D6 | D6 | D6 | D6 | D6 | D6 | D6 | D6 | D6 | z6 | z6 | z6 | z6 | z6 | %17
 z6 | z6 | z6 | z6 | z6 | z6 | z6 |!mf! !>![Ae]6 | z6 | !>![Ae]4 .[Ae]2 | z6 | %28
 .[Ae].[Ae] .[Ae]2 z2 | .[Ae].[Ae] .[Ae]2 z2 | .[Ae]2 z2 .[Ae]2 | z2 .[Ae]2 z2 |!mp! z2 .G.B .G.A | %33
 .B2 .A.B .G.B | (PAG) .G.B .G.A | .B2 .A.B .G.B | ._A2 .A.c .A.B | .c2 .B.c ._A.c | %38
 (PB_A) .A.c .A.B | .c2 ._A.c .B.A | .G2!p! .g.b .g.a | .b2 .a.b .g.b | (Pag) .g.b .g.a | %43
 .b2 .a.b .g.b | ._a2 .a.c' .a.b | .c'2 .b.c' ._a.c' | (Pb_a) .a.c' .a.b | .c'2 ._a.c' .b.a | %48
 .g2 z2!f! D2 | G4 G2 | F4 F2 | =E4 E2 | E4 E2 | D2 =E2 G2 | ^F2 =E2 D2 | =E4 E2 | ^F2!p! .F2 .D2 | %57
 z2 .G2 .D2 | z2 .=F2 .D2 | z2 .=E2 .B,2 | z2 ._E2 .B,2 | z2 .D2 .B,2 | z2 .^F2 .D2 | %63
 z2 .^F2 .=E2 |"^A" .D2!p! d^f d=e | ^f2 =ef df | =ed d^f de | ^f2 =ef df | .[Gceg]2!mf! .B2 .G2 | %69
 z2 .B2 .G2 | z2 .B2 .G2 | z2 .B2 .G2 | .D2!p! d^f d=e | ^f2 =ef df | =ed d^f de | ^f2 =ef df | %76
 .[Gceg]2 .B2 .G2 | z2 .B2 .G2 | z2 .B2 .G2 | z2 .B2 .G2 |!ff! .D2 z4 | .[Ae]2 z4 | %82
 .[Ae]2 z2 .[Ae]2 | z2 .[Ae]2 .[DGBd]2 | .[GBdg]2 gb ga | .b2 .a.b .g.b | (Pag) .g.b .g.a | %87
 .b2 .a.b .g.b | ._a2 .a.c' .a.b | .c'2 .b.c' ._a.c' | (Pb_a) .a.c' .a.b | .c'2 ._a.c' .b.a | %92
 .g2 .g.b .g.a | .b2 .a.b .g.b | (Pag) .g.b .g.a | .b2 .a.b .g.b | ._a2 .a.c' .a.b | %97
 .c'2 .b.c' ._a.c' | (Pb_a) .a.c' .a.b | .c'2 ._a.c' .b.a | .g2 z2 D2 | G4 G2 | F4 F2 | =E4 E2 | %104
 E4 E2 | D2 =E2 G2 | ^F2 =E2 D2 | =E4 E2 | ^F2 z2 D2 | G4 G2 | F4 F2 | =E4 E2 | E4 E2 | %113
 .D2 .G2 .B2 | .A2 .^F2 .D2 | ^F4 =E2 | D2!pp! .[^FAd]2 .[DFA]2 | z2 .[^FAd]2 .[DFA]2 | %118
 z2 .[^FAd]2 .[DFA]2 | z2 .[^FAd]2 .[DFA]2 | .E2!ff! .[Gg].[Bb] .[Gg].[Aa] | %121
 .[Bb]2 .[Ee].[Gg] .[Ee].[Ff] | .[Gg]2 .[B,B].[Ee] .[B,B].[Dd] | .[Ee]2 .[Ee].[Ee] .[Ee].[Ee] | %124
 .[Dd]2!pp! .[^FAd]2 .[DFA]2 | z2 .[^FAd]2 .[DFA]2 | z2 .[^FAd]2 .[DFA]2 | z2 .[^FAd]2 .[DFA]2 | %128
!ff! z2 .[Gg].[Bb] .[Gg].[Aa] | .[Bb]2 .[Ee].[Gg] .[Ee].[Ff] | .[Gg]2 .[B,B].[Ee] .[B,B].[Dd] | %131
 .[Ee]2 .[Ee].[Ee] .[Ee].[Ee] | .[D^FAd]2 z4 | .[Ae]2 z4 | .[DAe]2 z2 .[DAe]2 | %135
 z2 .[DAe]2!ff! .[d^fad']2 | .[gbd'g']2"^C" z4 | z6 | z6 | z6 | z6 | z6 | z6 | z4!mp! .A,2 | %144
 !>!.D.D .D2 z2 | !>!.C.C .C2 z2 | !>!.=B,.B, .B,2 z2 | !>!.B,.B, .B,2 z2 | %148
!<(! .A,.A, .=B,.B, .D!<)!!mf!.D |!>(! .C.C .=B,.B, .A,.A,!>)! |!mp! .C.C .A2 .[CD]2 | %151
 !>!.G.G .G2 z2 | !>!.F.F .F2 z2 | !>!.=E.E .E2 z2 | !>!.E.E .E2 z2 | .D.D .=E.E .G.G | %156
 .F.F .=E.E .D.D | .=E.E .A2 .E2 | .F2 .!1!D.!2!=E .!3!F.!4!G | %159
 .!5!A.!3!^G .!4!A.!5!c .!4!=B.!3!A | .!5!d.!3!c .!4!d.!5!f .!2!=e.!1!d | %161
 .!4!g.!2!^f .!3!g.!5!b .!3!a.!2!g | .!1!f.!4!a .!3!g.!1!=e .!3!f.!1!d | %163
 .!2!=e.!4!a .!3!^g.!4!=b .!5!c'.!3!a | .!1!d.!2!^f .!3!a.!5!c' .!4!b.!3!a | %165
 !>!.[Bg].[Bg] .[Bg]2 z2 | !>!.[Ad].[Ad] .[Ad]2 z2 | !>!.[c=eg].[ceg] .[ceg]2 z2 | %168
 !>!.[C_EG].[CEG] .[CEG]2 z2 |!<(! .D.D .=E.E .G.G | .F.F .=E.E .D.D | !trill(!TF6!<)! | %172
"^D"!f! =E2!pp! !trill(!TE4- | E6- | E6- | E6- | E6- | E6- | E6- | E6- | E6- | E6- | E6- | E6- | %184
 E6- | E6- | E6- | !trill)!E6 | !trill(!TA6- | A6- | A6- | A6- | A6- | A6- | A6- | A6- | A6- | %197
 A6- | A6- | A6- | A6- | A6- | !trill)!A6 |!<(! z2 (3!2!A!3!B!2!A (3!3!B!4!_c!3!B!<)! | %204
[K:B]!mf!"^E" [Ff]2 z2 F2 | B4 B2 | A4 A2 | =A4 A2 | =G4 G2 | F2 =G2 B2 | =A2 =G2 F2 | =G4 G2 | %212
 [B,DFB]6- | [B,DFB]6- | [B,DFB]6- | [B,DFB]6 | [=D=G]6- | [DG]6- | [DG]6- | [DG]6 | [D=G]4 F2 | %221
 B4 B2 | =A4 A2 | G4 G2 | E2 F2 =A2 | =G2 F2 E2 | =G4 G2 | F4-!mf! [Ff]2 | b4 b2 | a4 a2 | =a4 a2 | %231
 g4 g2 | e2 f2 =a2 | =g2 f2 e2 | =g4 g2 |!p!"^F" (B,/!<(!=C/^C/=D/) (^D/E/^E/F/) (^^F/G/^^G/A/) | %236
 (B/^B/c/^^c/) (d/e/^e/f/) (^^f/g/=a/^a/)!<)! |!f! (b/!>(!a/=a/g/) (=g/f/=f/e/) (d/=d/c/=c/) | %238
 (B/A/=A/G/) (=G/F/=F/E/) (D/=D/C/=C/)!>)! |!p! (B,/!<(!=C/^C/=D/) (^D/E/^E/F/) (^^F/G/^^G/A/) | %240
 (B/^B/c/^^c/) (d/e/^e/f/) (^^f/g/^^g/a/)!<)! |!f! (b/!>(!a/=a/g/) (=g/f/=f/e/) (d/=d/c/=c/) | %242
 (B/A/=A/G/) (=G/F/=F/E/) (D/=D/C/=C/)!>)! |!mf! .B,2 .[Dd].[Ff] .[Dd].[^E^e] | %244
 .[Ff] z .[^E^e] z .[Dd] z | z2 .[dd'].[ff'] .[dd'].[^e^e'] | .[ff'] z .[^e^e'] z .[dd'] z | %247
 z2 .[Dd].[Ff] .[Dd].[^E^e] | .[Ff] z .[^E^e] z .[Dd] z | z2 .[=c=c'].[dd'] .[cc'].[=d=d'] | %250
 .[dd'] z .[=d=d'] z .[=c=c'] z |[K:Bb]"^G"!mf! (3G,Ec (3gcE G,2- | (3G,Ec (3gcE G,2- | %253
 (3G,=Ec (3gcE G,2- | (3G,=Ec (3gcE (G,2 | (3A,)Fc (3acF A,2- | (3A,Fc (3acF A,2- | %257
 (3A,=E^c (3acE A,2- | (3A,=E^c (3acE A,2- | (3A,Fd (3bdF B,2- | (3B,Fd (3bdF (B,2 | %261
 (3C)G=e (3c'eG C2- | (3CGe (3c'eG C2- | (3CA^f (3d'fA (D2 | (3E)Bg (3e'gB (E2 | %265
 (3D)A^f (3d'fB (D2 | (3E)Bg (3e'gB (E2 | (3D)A^f (3d'fA E2- |!<(! (3EBg (3e'gB E2- | %269
 (3EBg (3e'gB E2- | (3EBg (3e'gB E2!<)! |"^H" z6 |!ff! [DAd^fad']4 .[DAdfad']2 | z6 | %274
 [DAd^fad']4 .[DAdfad']2 | z6 |!f! [CGc=ec']4 .[CGcec']2 | z6 |!mf! [B,FBdb]4 .[B,FBdb]2 | z6 | %280
 z6 | z6 | z6 | z6 | z6 | z6 | z6 |!mp! [A,D^F]4 [A,DF]2 | [B,EG]4 [B,EG]2 | [CFA]4 [CFA]2 | %290
 [EGB]4 [EGB]2 |!<(! .[A,^FA]2 z4 | .[A,^FA]2 z4 | .[A,^FA]2 z4 | .[A,^FA]2 z4!<)! | %295
!f!!>(! !>![eg][d_g][_df][c_f][_ce][B=d] | [A_d][_Ac][G_c][_GB][F=A][_F_A] | %297
 [EG][D_G][_DF][C_F][_CE][B,=D]!>)! | [A,_D][_A,C][G,_C][_G,B,][_F,A,][E,=G,] |!mp! z6 | %300
!<(! .[A,D^FA]2 z4 | .[A,D^FA]2 z4 | .[A,D^FA]2!<)! z4 | %303
!f!!>(! [e'g'][d'_g'] [_d'f'][c'_f'] [_c'e'][b=d'] | [a_d'][_ac'] [g_c'][_gb] [f=a][_f_a] | %305
 [eg][d_g] [_df][c_f] [_ce][B=d]!>)! | [A_d][^Gc] [=G_c][^FB] [=FA][EG] |!p!"^I" .[D^F] z z4 | %308
!f! [Ae][Ae] .[Ae]2 z2 | [Ae] z [Ae] z [Ae] z | .[Ae]2 z2!p! .[Dd]2 | .[GBeg]2 .[GBeg]2 ._D2 | %312
 ._D.D .D2 .D2 | ._D.D.D.D.D.D | ._D2 .D2 .[Ee]2 | .[_Ae_a]2 .[Aea]2 .C2 | .C.C .C2 .[_Ae_a]2 | %317
 .[^c=e^c']2 .[cec']2 .B,2 | .B,.B, .B,2 z2 | z2!mf! .D.^F .D.=E | .^F2 .=E2 .D2 | z4 d2 | %322
 .f2 .=e2 .d2 | (=e6 | A6) | z4 c2 | .e2 .d2 .c2 | d6 | G6 | z4 G2 | .B2 .A2 .G2 | A4 =E2 | %332
!>(! (G6 | (F6) | E6)!>)! |!p!"^J" ([A,D]4!<(! [B,E]2) | ([=B,=E]4 [CF]2)!<)! | %337
!mf! ([EA]2!>(! _A2 [DG]2)!>)! |!mp! ([C^F]4!<(! [DG]2) | ([=EA]4 [FB]2)!<)! | %340
!f! ([_Ad]2!>(! _d2 [Gc]2)!>)! |!mf! ([F=B]4!<(! [Gc]2) | ([Be]4 [Ad]2) | ([cf]4 [Be]2)!<)! | %344
!f! (!>![ea]2!<(! _a2 g2) | (^f4 g2) | (!>![ea]2 _a2 g2) | (^f4 g2) | (!>![ea]2 _a2 g2) | %349
 (!>!^f4 g2) | (!>!^f4 g2) | (!>!^f4 g2)!<)! |!ff! .e'.c' .e'.d' .c'.b | .e'.c' .e'.d' .c'.b | %354
 .e'.c' .e'.d' .c'.b | .e'.c' .e'.d' .c'.b | .[ee'].c' .e'.d' .c'.a | .c'.b .a.^f .a.g | %358
 .^f.c .e.d .c.A | .c.B .A.^F .A.G |"^K" .^F.C .E.D .C.A, | z .C .E.D .C.A, | z .C .E.D .C.A, | %363
 z .C .E.D .C.A, | z!p! D!<(! E=E F^F | G^G AB =Bc | ^cd e=e [^F^f][Gg] | %367
 [Aa][Bb] [cc'][dd'] [=e=e'][^f^f']!<)! |!sfz! [gbg']2!ff! gb ga | b2 ab gb | (ag) gb ga | %371
 b2 ab gb | (ag) gb ga | b2 ab gb |!8va(! d'2 =e'^f' d'f' | a'2!8va)! A2 =B^c | d2 gb ga | %377
 b z ab gb | (ag) gb ga | b z ab gb | (ag) gb ga | b z ab gb | %382
!8va(! (3[^F^f^f'][Fff'][Fff'] (3[Ddd'][Ddd'][Ddd'] (3[Fff'][Fff'][Fff'] | %383
 (3[aa'][aa'][aa'] (3[aa'][aa'][aa'] (3[aa'][aa'][aa'] | [dd']2!8va)! DD DD | ^C2 DD DD | %386
 ^C2 DD DD | ^C2 DD DD | ^C2 DD DD | C2 DD DD | C2 DD DD | C2 DD DD |"^L" B,2!ff! DG Bd | %393
 (gb){/b} (a^g){/a} (g=g) |{/^g} (=g^f){/g} (f=f){/^f} (=f=e) |{/f} (=e_e){/=e} (_ed){/e} (d^c) | %396
{/d} (^c=c){/^c} (=c=B){/c} (B_B) | _AG Ac BA | G^F GB AG | ^FA d^f ad' | .b2 DG Bd | %401
 (gb){/b} (a^g){/a} (g=g) |{/^g} (=g^f){/g} (f=f){/^f} (=f=e) |{/f} (=e_e){/=e} (_ed){/e} (d^c) | %404
{/d} (^c=c){/^c} (=c=B){/c} (B_B) | _AG Ac BA | G^F GB AG | ^FA d^f ad' | bg dB GD | ^FA d^f ad' | %410
 bg dB GD | ^FA d^f ad' | D^F Ad ^fa | Ad ^fa d'^f' |!ff! [gbg']2 [fd'f']2 [ege']2 | %415
 [faf']2 [ec'e']2 [dfd']2 | [ege']2 [dbd']2 [cec']2 | _ac' ab c'2 | ^fa fg a2 | [Gg]2 [Ff]2 [Ee]2 | %420
 [Ff]2 [Ee]2 [Dd]2 | [Ee]2 [Dd]2 [Cc]2 | _Ac AB c2 | ^FA FG A2 | G,B, G,A, B,2 | C=B, _B,A, _A,2 | %426
 G,B, G,A, B,2 | C=B, _B,A, _A,2 |"^M"!<(! G,B, G,A, B,2 | G,B, G,A, B,2 | G,B, G,A, B,2!<)! | %431
!fff! G,B, G,A, B,G, | A,B, G,A, B,G, | A,B, G,A, B,G, | A,B, G,A, B,G, | A,B, G,A, B,G, || z6 | %437
 z6 | z6 | z6 | z6 | z6 | z6 |!f! !//-!B,3!>(! [EG]3 | !//-!B,3 [EG]3 | !//-!B,3 [EG]3 | %446
 !//-!B,3 [EG]3 | !//-!B,3 [EG]3 | !//-!B,3 [EG]3 | !//-!B,3 [EG]3 | !//-!B,3 [EG]3 | %451
 !//-!B,3 [EG]3 |"^tres long\ntoujours en dim.\n" !//-!!fermata!B,3 [EG]3!>)! |!pp! !>!d6 | %454
!mp! B2 A2 G2 | G6- | G2 z4 | B6 | G2 F2 E2 | E6- | E2 z4 | z4 E2 | _A,2 B,2 C2 | %463
"_ritard.\n"[Q:3/4=56] E6 |[Q:3/4=46] (E6 |!pp!"^N"[Q:3/4=62] !//-!!>!D3"_dim." E3) | %466
 (!//-!!>!D3 E3 | !//-!!>!D3 E3 | !//-!!>!D3 E3 | !//-!!>!D3 E3 | !//-!!>!D3 E3 | !>!D2) z4 | z6 | %473
 z6 |!ppp! [D^FA]2 z4 | [G,B,G]2"^FIN" z4 |] %476
V:2
 z6 | z6 | z6 | z6 | z6 | z6 | z6 | z6 | z6 | z6 | z6 | z6 | z6 | z6 | z6 | z6 | z6 | z6 | z6 | %19
 z6 | z6 | z6 | z6 | z6 | z6 | z6 | z6 | z6 | z6 | z6 | z6 | z6 | .G,,2 z4 | z6 | z6 | z6 | z6 | %37
 z6 | z6 | z6 |[K:treble] z2 .G.B .G.A | .B2 .A.B .G.B | (PAG) .G.B .G.A | .B2 .A.B .G.B | %44
 ._A2 .A.c .A.B | .c2 .B.c ._A.c | (PB_A) .A.c .A.B | .c2 ._A.c .B.A | .G2 z4 |[K:bass] z6 | z6 | %51
 z6 | z6 | z6 | z6 | z6 | z2 .D2 .A,2 | z2 .D2 .B,2 | z2 .D2 .B,2 | z2 .B,2 .G,2 | z2 .B,2 .G,2 | %61
 z2 .B,2 .G,2 | z2 .D2 .A,2 | z2 .[A,,A,]2 .[^C,A,]2 | [D,,D,]6- | [D,,D,]6- | [D,,D,]6- | %67
 [D,,D,]6 | .C,2 z4 | z6 | z6 | z6 | [D,,D,]6- | [D,,D,]6- | [D,,D,]6- | [D,,D,]6 | .C,2 z4 | z6 | %78
 z6 | z6 | z6 | z6 | z6 | z4 .[D,,D,]2 | .[G,,,D,,G,,]2 z4 |[K:treble] .[GBd]2 z4 | .[GBd]2 z4 | %87
 .[GBd]2 z4 | .[F_Ac]2 z4 | .[F_Ac]2 z4 | .[F_Ac]2 z4 | .[F_Ac]2 z4 | .[GBd]2 .G.B .G.A | %93
 .B2 .A.B .G.B | (PAG) .G.B .G.A | .B2 .A.B .G.B | ._A z .A.c .A.B | .c2 .B.c ._A.c | %98
 (PB_A) .A.c .A.B | .c2 ._A.c .B.A | .G2[K:bass] z2 D,2 | G,4 G,2 | F,4 F,2 | =E,4 E,2 | E,4 E,2 | %105
 D,2 =E,2 G,2 | ^F,2 =E,2 D,2 | =E,4 E,2 | ^F,2 z2 D,2 | G,4 G,2 | F,4 F,2 | =E,4 E,2 | E,4 E,2 | %113
 .D,2 .G,2 .B,2 | .A,2 .^F,2 .D,2 | ^F,4 =E,2 | [D,,D,]2 .[^F,A,D]2 .[D,F,A,]2 | %117
 z2 .[^F,A,D]2 .[D,F,A,]2 | z2 .[^F,A,D]2 .[D,F,A,]2 | z2 .[^F,A,D]2 .[D,F,A,]2 | %120
 z2 .G,.B, .G,.A, | .B,2 .E,.G, .E,.F, | .G,2 .B,,.E, .B,,.D, | .E,2 .E,.E, .E,.E, | %124
 .D,2 .[^F,A,D]2 .[D,F,A,]2 | .[D,,D,]2 z4 | .[D,,D,]2 z4 | .[D,,D,]2 z4 | .C,2 .G,.B, .G,.A, | %129
 .B,2 .E,.G, .E,.F, | .G,2 .B,,.E, .B,,.D, | .E,2 .E,.E, .E,.E, | .[D,^F,A,]2 z4 | z6 | z6 | %135
 z4 .[D,,D,]2 | .[G,,,G,,]2 z4 | z6 | z6 | z6 | z6 | z6 | z6 | z6 | z6 | z6 | z6 | z6 | z6 | z6 | %150
 z6 | .B,.A, .G,.A, .B,.C | .D2 z2 z2 | z3 .B, .A,.G, | .C2 z .C .B,.A, | .B,2 z .A, .G,.B, | %156
 .D2 z .B, .G,.D | !trill(!T^C6 | .D2 z4 | z6 |[K:treble] .=B.A .B.d .c.B | .B.A .B.d .c.B | %162
 .A.f .=e.A .d.F | .A.c .=B.^g .a.c | .A.B .c.e .d.A |[K:bass] z2 .[G,,D,G,]2 z2 | %166
 !>!.[A,,D,F,].[A,,D,F,] .[A,,D,F,]2 z2 | !>!.[G,,=E,G,].[G,,E,G,] .[G,,E,G,]2 z2 | %168
 !>!.E,.E, .E,2 z2 | .D,.D, .=E,.E, .G,.G, | .F,.F, .=E,.E, .D,.D, | !trill(!TF,6 | =E,2 z4 | %173
 .=E,,2 z4 | .=E,,2 z4 | .=E,,2 z4 | .=E,,2 z4 | .=E,,2 z4 | .=E,,2 z4 | .=E,,2 z4 | .=E,,2 z4 | %181
 .=E,,2 z4 | .=E,,2 z4 | .=E,,2 z4 | .=E,,2 z4 | .=E,,2 z4 | .=E,,2 z4 | .=E,,2 z4 | .A,,2 z4 | %189
 .A,,2 z4 | .A,,2 z4 | .A,,2 z4 | .A,,2 z4 | .A,,2 z4 | .A,,2 z4 | .A,,2 z4 | .A,,2 z4 | .A,,2 z4 | %198
 .A,,2 z4 | .A,,2 z4 | .A,,2 z4 | .A,,2 z4 | .A,,2 z4 | %203
 z2 (3!3!A,,!2!B,,!3!A,, (3!2!B,,!1!_C,!2!B,, |[K:B] !arpeggio!!5!!2!!1![B,,F,B,D]6- | %205
 [B,,F,B,D]6- | [B,,F,B,D]6- | [B,,F,B,D]6 | !arpeggio!!5!!2!!1![B,,=G,B,=D]6- | [B,,G,B,D]6- | %210
 [B,,G,B,D]6- | [B,,G,B,D]6 | [B,,F,]6- | [B,,F,]6- | [B,,F,]6- | [B,,F,]6 | [B,,B,]6- | %217
 [B,,B,]6- | [B,,B,]6- | [B,,B,]6 | [B,,F,B,]6- | [B,,F,B,]6- | [B,,F,B,]6 | %223
 !arpeggio![B,,G,B,E]6- | ((((([B,,G,B,E]6 | !arpeggio![B,,^A,CE]6-))))) | [B,,A,CE]6 | %227
 !arpeggio![B,,F,B,D]6- | [B,,F,B,D]6 | [B,,B,]6- | [B,,B,]6- | [B,,B,]6- | [B,,B,]6- | [B,,B,]6- | %234
 [B,,B,]6 | B,,2 z4 | z6 | z6 | z6 | z6 | z6 | z6 | z6 | %243
 .[B,,D,F,].[B,,D,F,] .[B,,D,F,].[B,,D,F,] .[B,,D,F,].[B,,D,F,] | %244
 .[B,,D,F,].[B,,D,F,] .[B,,D,F,].[B,,D,F,] .[B,,D,F,].[B,,D,F,] | %245
 .[A,,D,F,].[A,,D,F,] .[A,,D,F,].[A,,D,F,] .[A,,D,F,].[A,,D,F,] | %246
 .[A,,D,F,].[A,,D,F,] .[A,,D,F,].[A,,D,F,] .[A,,D,F,].[A,,D,F,] | %247
 .[=A,,D,F,].[A,,D,F,] .[A,,D,F,].[A,,D,F,] .[A,,D,F,].[A,,D,F,] | %248
 .[=A,,D,F,].[A,,D,F,] .[A,,D,F,].[A,,D,F,] .[A,,D,F,].[A,,D,F,] | %249
 .[G,,^B,,D,].[G,,B,,D,] .[G,,B,,D,].[G,,B,,D,] .[G,,B,,D,].[G,,B,,D,] | %250
 .[G,,^B,,D,].[G,,B,,D,] .[G,,B,,D,].[G,,B,,D,] .[G,,B,,D,].[G,,B,,D,] |[K:Bb] [G,,G,]2 z4 | z6 | %253
 z6 | z6 | z6 | z6 | z6 | z6 | z6 | z6 | z6 | z6 | z6 | z6 | z6 | z6 | z6 | z6 | z6 | z6 | z6 | %272
 z6 | z6 | z6 | z6 | z6 | z6 | z6 | z6 | z6 | z6 | z6 | z6 | z6 | z6 | z6 | [C,A,]4 [C,A,]2 | %288
 [B,,G,]4 [B,,G,]2 | [A,,F,]4 [A,,F,]2 | [G,,E,]4 [G,,E,]2 | .[D,,D,]2 z4 | .[D,,D,]2 z4 | %293
 .[D,,D,]2 z4 | .[D,,D,]2 z4 | z6 | z6 | z6 | z6 | .[D,,A,,D,^F,A,D]2 z4 | .[D,,D,]2 z4 | %301
 .[D,,D,]2 z4 | .[D,,D,]2 z4 | z6 | z6 | z6 | z6 | z6 | z6 | z6 | z4 .[A,,D,^F,]2 | %311
 .[B,,_D,G,]2 .[B,,D,G,]2 z2 | z6 | z6 | z4 .[B,,_D,G,]2 | .[_A,,C,E,]2 .[A,,C,E,]2 z2 | %316
 z4 .[_A,,C,E,]2 | .[G,,B,,=E,]2 .[G,,B,,E,]2 z2 | z6 | z6 | z6 | z6 | z6 | z6 | z6 | z6 | z6 | %327
 z6 | z6 | z6 | z6 | z6 | z6 | z6 | z6 | ([^F,,A,,]4 [G,,B,,]2) | ([^G,,=B,,]4 [A,,C,]2) | %337
 ([C,E,]4 [B,,D,]2) | ([A,,C,]4 [B,,D,]2) | ([^C,=E,]4 [D,F,]2) | ([F,_A,]4 [E,G,]2) | %341
 ([D,F,]4 [E,G,]2) | ([G,B,]4 [^F,A,]2) | ([A,C]4 [G,B,]2) |[K:treble] (!>![ce]4 B2) | %345
 ([Ac]4 [Bd]2) | (!>![ce]4 B2) | ([Ac]4 [Bd]2) | (!>![ce]4 B2) | (!>![Ac]4 [Bd]2) | %350
 (!>![Ac]4 [Bd]2) | (!>![Ac]4 [Bd]2) | ([Ac^f]4 [Bdg]2) | ([Ac^f]4 [Bdg]2) | ([Ac^f]4 [Bdg]2) | %355
 ([Ac^f]4 [Bdg]2) |[K:bass] [C,C]2 z4 | z6 | z6 | z6 | z6 | z6 | z6 | z6 | z6 | z6 | z6 | z6 | %368
 [G,,,G,,]2[K:treble] GB GA | B2 AB GB | (AG) GB GA | B2 AB GB | (AG) GB GA | B2 AB GB | %374
 d2 =e^f df | a2[K:bass] [A,,A,][B,,B,] [=B,,=B,][^C,^C] | [D,D][C,C] [B,,B,][A,,A,] [G,,G,]2 | %377
[K:treble] b z ab gb | (ag) gb ga | b z ab gb | (ag) gb ga | b z ab gb | %382
[K:bass] (3^F,F,F, (3D,D,D, (3F,F,F, | A,2 A,B, =B,^C | D2 D,D, D,D, | ^C,2 D,D, D,D, | %386
 ^C,2 D,D, D,D, | ^C,2 D,D, D,D, | ^C,2 D,D, D,D, | C,2 D,D, D,D, | C,2 D,D, D,D, | C,2 D,D, D,D, | %392
 [B,,,B,,]2 z4 | z6 | z6 | z6 | z6 | z6 | z6 | z6 | z6 | z6 | z6 | z6 | z6 | z6 | z6 | z6 | z6 | %409
 z6 | z6 | z6 | z6 | z6 | [G,,G,]2 [B,,B,]2 [C,C]2 | [F,,F,]2 [A,,A,]2 [B,,B,]2 | %416
 [E,,E,]2 [G,,G,]2 [_A,,_A,]2 | C,E, _A,C E2 | ^F,A, D=E ^F2 | [G,,G,]2 [B,,B,]2 [C,C]2 | %420
 [A,,A,]2 [F,,F,]2 [B,,B,]2 | [G,,G,]2 [E,,E,]2 [_A,,_A,]2 | [C,E,][C,E,] [C,E,][C,E,] [C,E,]2 | %423
 [A,,D,^F,][A,,D,F,] [A,,D,F,][A,,D,F,] [A,,D,F,]2 | G,,B,, G,,A,, B,,2 | C,_C, B,,A,, _A,,2 | %426
 G,,B,, G,,A,, B,,2 | C,_C, B,,A,, _A,,2 | G,,B,, G,,A,, B,,2 | G,,B,, G,,A,, B,,2 | %430
 G,,B,, G,,A,, B,,2 | G,,B,, G,,A,, B,,G,, | A,,B,, G,,A,, B,,G,, | A,,B,, G,,A,, B,,G,, | %434
 A,,B,, G,,A,, B,,G,, | A,,B,, G,,A,, B,,G,, || z6 | z6 | z6 | z6 | z6 | z6 | z6 | !//-!G,,3 ^C,3 | %444
 !//-!G,,3 ^C,3 | !//-!G,,3 ^C,3 | !//-!G,,3 ^C,3 | !//-!G,,3 ^C,3 | !//-!G,,3 ^C,3 | %449
 !//-!G,,3 ^C,3 | !//-!G,,3 ^C,3 | !//-!G,,3 ^C,3 | !//-!!fermata!G,,3 ^C,3 | [D,B,D]2 z4 | z6 | %455
 z6 | z6 | z6 | z6 | z6 | z6 | z6 | z6 | z6 | z6 | z6 | z6 | z6 | z6 | z6 | z6 | z6 | z6 | z6 | %474
 [D,,D,]2 z4 | [G,,,G,,]2 z4 |] %476
V:3
 z6 | z6 | z6 | z6 |!pp! !//-!d3 A3 | !//-!d3 A3 | !//-!d3 A3 | !//-!d3 A3 | z6 | z6 | z6 | z6 | %12
 !//-!^f3 d3 | !//-!^f3 d3 | !//-!^f3 d3 | !//-!^f3 d3 | z6 | z6 | z6 | z6 | z6 | z6 | z6 | z6 | %24
 z6 |!mf! !>![DA]6 | z6 | !>![DA]4 .[DA]2 | z2 z2 .[DA]2 | z2 z2 .[DA]2 | z2 .[DA]2 z2 | %31
 .[DA]2 z2!f!!f! .[DA]2 | .[B,GB]2 .[G,B,D]2 .[D,G,B,]2 |[K:bass] z2 .[G,B,D]2 .[D,G,B,]2 | %34
 z2 .[G,B,D]2 .[D,G,B,]2 | z2 .[G,B,D]2 .[D,G,B,]2 | z2 .[_A,CE]2 .[E,A,C]2 | %37
 z2 .[_A,CE]2 .[E,A,C]2 | z2 .[_A,CE]2 .[E,A,C]2 | z2 .[_A,CE]2 .[E,A,C]2 | [B,D]6- | [B,D]6- | %42
 [B,D]6- | [B,D]6 |[K:treble] [CE]6- | [CE]6- | [CE]6- | [CE]6- | [CE]2 z4 |!p! z2 .G2 .D2 | %50
 z2 .F2 .D2 | z2 .=E2 .B,2 | z2 ._E2 .B,2 | z2 .D2 .B,2 | z2 .D2 .A,2 | z2 .=E2 .^C2 | %56
 z2 z2!f! D2 | G4 G2 | F4 F2 | =E4 E2 | E4 E2 | D2 G2 B2 | A2 ^F2 D2 | ^F4 =E2 | D2!p! D^F D=E | %65
 ^F2 =EF DF | =ED D^F DE | ^F2 =EF DF | .[EB]2!mf! .[EG]2 .[B,E]2 | z2 .[EG]2 .[B,E]2 | %70
 z2 .[EG]2 .[B,E]2 | z2 .[EG]2 .[B,E]2 | D2!p! D^F D=E | ^F2 =EF DF | =ED D^F DE | ^F2 =EF DF | %76
 .[EB]2!mf! .[EG]2 .[B,E]2 | z2 .[EG]2 .[B,E]2 | z2 .[EG]2 .[B,E]2 | z2 .[EG]2 .[B,E]2 | %80
 .^F2!ff! .[DA].[DA] .[DA].[DA] | z2 .[DA].[DA] .[DA].[DA] | z2 .[DA]2 z2 | .[DA]2 z2 .[DAd]2 | %84
 .[GBg]2 z4 | .[GBdg]2 z4 | .[GBdg]2 z4 | .[GBdg]2 z4 | .[_Ace_a]2 z4 | .[_Ace_a]2 z4 | %90
 .[_Ace_a]2 z4 | .[_Ace_a]2 z4 | .[Gg]2 .g.b .g.a | .b2 .a.b .g.b | (.Pa.g) .g.b .g.a | %95
 .b2 .a.b .g.b | ._a2 .a.c' .a.b | .c'2 .b.c' ._a.c' | (.Pb._a) .a.c' .a.b | .c'2 ._a.c' .b.a | %100
 .g2!f! .[Bdg]2 .[GBd]2 | z2 .[Bdg]2 .[GBd]2 | z2 .[Bdg]2 .[GBd]2 | z2 .[Bdg]2 .[GBd]2 | %104
 z2 .[Bdg]2 .[GBd]2 | z2 .[Bdg]2 .[GBd]2 | z2 .[d^f]2 .[Ad]2 | z2 .[^c=e]2 .[Ac]2 | %108
 z2 .[d^f]2 .[Ad]2 | z2 .[Bdg]2 .[GBd]2 | z2 .[Bdgb]2 .[GBdg]2 | z2 .[Bdgbd']2 .[GBdgb]2 | %112
 z2 .[Bgbg']2 .[GBgb]2 | z2 .[Bgbb']2 .[GBgbg']2 | z2 .[d^fad'^f'd'']2 .[Adfad'a']2 | %115
 z2 .[Ad^fad'^f'd'']2 .[A^c=e^c'=e'^c'']2 | .[Ad^fd'^f'd'']2!p! df d=e | ^f2 =ef df | %118
{/=e^f} Ped df de | ^f2 =ef df |!f! .[Bg]2 z4 | .[EB]2 z4 | .[EB]2 z4 | .[EB]2 z4 | z2!p! d^f d=e | %125
 ^f2 =ef df |{/=e^f} Ped df de | ^f2 =ef df |!f! [G,EBg]2 [EBg]2 [G,EB]2 | [G,EB]2 [EBg]2 [G,EB]2 | %130
 [G,EB]2 [EBg]2 [G,EB]2 | [G,EB]2 [EBg]2 [G,EB]2 | [Ddd']2!ff! .[DA].[DA] .[DA].[DA] | %133
 z2 .[DA].[DA] .[DA].[DA] | z2 .[DA]2 z2 | .[DA]2 z2!ff! .[DAdd']2 |!8va(! [gbd'g']2!mf! z4!8va)! | %137
 z6 | z6 | z6 | z6 | z6 | z6 | z2 z2 .A,2 | .D2 z2 .D2 | .C2 z2 .C2 | .=B,2 z2 .B,2 | %147
 .B,2 z2 .B,2 | .A,2 .=B,2 .D2 | .C2 .=B,2 .A,2 | .C2 z2 .d2 | .[Gg]2 z2 .[Gg]2 | %152
 .[Ff]2 z2 .[Ff]2 | .[=E=e]2 z2 .[Ee]2 | .[Ee]2 z2 .[Ee]2 | .[Dd]2 .[=E=e]2 .[Gg]2 | %156
 .[Ff]2 .[=E=e]2 .[Dd]2 | .[=E=e]2 z2 .[A,EAe]2 | .[DFdf]2 z2 .[Dd]2 | .[Cc]2 z2 .[Cc]2 | %160
 .[=B,=B]2 z2 .[B,B]2 | .[B,B]2 z2 .[B,B]2 | .[A,A]2 .[=B,=B]2 .[Dd]2 | .[Cc]2 .[=B,=B]2 .[A,A]2 | %164
 .[Cc]2 z2 .[Cc]2 | .[B,B]2 .[G,G].[A,A] .[B,B].[Cc] | .[Dd].[^C^c] .[Dd].[Ff] .[=E=e].[Dd] | %167
 .[Gg].[^F^f] .[Gg].[Bb] .[Aa].[Gg] | .[cc'].[=B=b] .[cc'].[ee'] .[dd'].[cc'] | %169
 .[ff'].[dd'] .[^c^c'].[=c=c'] .[=B=b].[_B_b] |!<(! .[Aa].[=B=b] .[^c^c'].[dd'] .[=e=e'].[ff'] | %171
 .[Aa].[=B=b] .[cc'].[^c^c'] .[dd'].[^d^d']!<)! | .[=e=e']2 z2!p! .[^ce^c']2 | %173
 .[=Bd=b]2 z2 .[^c=e^c']2 | .[A^ca]2 z2 .[=Bd=b]2 | .[^G=B^g]2 z2 .[A^ca]2 | %176
 .[A^ca]2 z2 .[c=e^c']2 | .[^c=e^c']2 z2 .[dfd']2 | .[^c=e^c']2 .[=Bd=b]2 .[Aca]2 | %179
 .[^c=e^c']2 z2 .[=Bd=b]2 | .[=Bd=b]2 z2 .[dfd']2 | .[^c=e^c']2 z2 .[dfd']2 | %182
 .[=Bd=b]2 z2 .[^c=e^c']2 | .[A^ca]2 z2 .[=Bd=b]2 | .[=Bd=b]2 z2 .[dfd']2 | %185
 .[dfd']2 z2 .[=eg=e']2 | .[dfd']2 .[^c=e^c']2 .[=Bd=b]2 | .[dfd']2 z2 .[dfd']2 | .[^c=e^c']2 z4 | %189
 z2 (!>![^G^g]2 [Aa]2) | z2 (!>![^G^g]2 [Aa]2) | z2 (!>![^G^g]2 [Aa]2) | z2 (!>![^G^g]2 [Aa]2) | %193
 z2 (!>![^G,^G^g^g']2 [A,Aaa']2) | z2 (!>![^G,^G^g^g']2 [A,Aaa']2) | %195
 z2 (!>![^G,^G^g^g']2 [A,Aaa']2) | z2 (!>![^G,^G^g^g']2 [A,Aaa']2) | z2 (!>![^G,^G^g]2 [A,Aa]2) | %198
 z2 (!>![^G,^G^g]2 [A,Aa]2) | z2 (!>![^G,^G^g]2 [A,Aa]2) |!8va(!"_cresc." z2 (!>![^g^g']2 [aa']2) | %201
 z2 (!>![^g'^g'']2 [a'a'']2) | z2 (!>![^g^g']2 [aa']2)!8va)! |!<(! z2 [Aa]2 [^A^a]2!<)! | %204
[K:B]!mf! z[I:staff +1] F,B,[I:staff -1]DF[I:staff +1]F, | %205
[I:staff -1] z[I:staff +1] F,B,[I:staff -1]DF[I:staff +1]F, | %206
[I:staff -1] z[I:staff +1] F,B,[I:staff -1]DF[I:staff +1]F, | %207
[I:staff -1] z[I:staff +1] F,B,[I:staff -1]DF[I:staff +1]F, | %208
[I:staff -1] z[I:staff +1] =G,B,[I:staff -1]=D=G[I:staff +1]G, | %209
[I:staff -1] z[I:staff +1] =G,B,[I:staff -1]=D=G[I:staff +1]G, | %210
[I:staff -1] z[I:staff +1] =G,B,[I:staff -1]=D=G[I:staff +1]G, | %211
[I:staff -1] z[I:staff +1] =G,B,[I:staff -1]=D=G[I:staff +1]G, | %212
[I:staff -1] z[I:staff +1] F,B,[I:staff -1]^DF[I:staff +1]F, | %213
[I:staff -1] z[I:staff +1] F,B,[I:staff -1]DF[I:staff +1]F, | %214
[I:staff -1] z[I:staff +1] F,B,[I:staff -1]DF[I:staff +1]F, | %215
[I:staff -1] z[I:staff +1] F,B,[I:staff -1]DF[I:staff +1]F, | %216
[I:staff -1] z[I:staff +1] =G,B,[I:staff -1]=D=G[I:staff +1]G, | %217
[I:staff -1] z[I:staff +1] =G,B,[I:staff -1]=D=G[I:staff +1]G, | %218
[I:staff -1] z[I:staff +1] =G,B,[I:staff -1]=D=G[I:staff +1]G, | %219
[I:staff -1] z[I:staff +1] =G,B,[I:staff -1]=D=G[I:staff +1]G, | %220
[I:staff -1] z[I:staff +1] F,B,[I:staff -1]DF[I:staff +1]F, | %221
[I:staff -1] z[I:staff +1] F,B,[I:staff -1]DF[I:staff +1]F, | %222
[I:staff -1] z[I:staff +1] F,B,[I:staff -1]DF[I:staff +1]F, | %223
[I:staff -1] z[I:staff +1] E,G,B,[I:staff -1]E[I:staff +1]E, | %224
[I:staff -1] z[I:staff +1] E,G,B,[I:staff -1]E[I:staff +1]E, | %225
[I:staff -1] z[I:staff +1] E,^A,[I:staff -1]CE[I:staff +1]E, | %226
[I:staff -1] z[I:staff +1] E,^A,[I:staff -1]CE[I:staff +1]E, | %227
[I:staff -1] z[I:staff +1] F,B,[I:staff -1]DF[I:staff +1]F, | %228
[I:staff -1] z[I:staff +1] F,B,[I:staff -1]DF[I:staff +1]F, | %229
[I:staff -1] z[I:staff +1] F,B,[I:staff -1]DF[I:staff +1]F, | %230
[I:staff -1] z[I:staff +1] F,B,[I:staff -1]DF[I:staff +1]F, | %231
[I:staff -1] z[I:staff +1] E,G,B,[I:staff -1]E[I:staff +1]E, | %232
[I:staff -1] z[I:staff +1] E,G,B,[I:staff -1]E[I:staff +1]E, | %233
[I:staff -1] z[I:staff +1] E,^A,[I:staff -1]CE[I:staff +1]E, | %234
[I:staff -1] z[I:staff +1] E,^A,[I:staff -1]CE[I:staff +1]E, |[I:staff -1] z6 | z6 | z6 | z6 | z6 | %240
 z6 | z6 | z6 | z6 | z2 .[Dd].[Ff] .[Dd].[^E^e] | .[Ff] z .[^E^e] z .[Dd] z | %246
 z2 .[Ddd'].[Fff'] .[Ddd'].[^E^e^e'] | .[Fff'] z .[^E^e^e'] z .[Ddd'] z | %248
 z2 [=c_e][e_g] [ce][=d=f] | [_e_g] z [=d=f] z [=ce] z | z2 [_E_e_e'][^F^f^f'] [Eee'][=F=f=f'] | %251
[K:Bb] [Ggg'] z z4 | z6 | z2 z2!mf! G2 | c4 c2 | c2 z4 | z6 | z2 z2 [=E=e]2 | [A^ca]4 [Aca]2 | %259
 [Fdd']2 z2 z2 | z6 | z2 z2 [Cc]2 | [Bb]4 [Bb]2 | [Aa]2 z4 | .[ee'].[gg'] .[ee'].[ff'] .[gg']2 | %265
 z6 | .[ee'].[gg'] .[ee'].[ff'] .[gg']2 | z6 |!<(! .[ee'].[gg'] .[ee'].[ff'] .[gg']2 | %269
 .[ee'].[gg'] .[ee'].[ff'] .[gg']2 | .[ee'].[gg'] .[ee'].[ff'] .[gg']2!<)! | %271
!ff! [egbe']4 .[egbe']2 | z6 | [egbe']4 .[egbe']2 | z6 |!f! [df_ad']4 .[dfad']2 | z6 | %277
!mf! [ce_gc']4 .[cegc']2 | z6 |!>(! [CEAcea]4 .[CEAcea]2 | [B,DGBdg]4 .[B,DGBdg]2 | %281
 [A,CFAcf]4 .[A,CFAcf]2 | [G,B,EGBe]4 .[G,B,EGBe]2 | [^F,A,D^FAd]4 .[F,A,DFAd]2 | %284
 [G,B,EGBe]4 .[G,B,EGBe]2!>)! |!p! [^F,A,D^FAd]4 .[F,A,DFAd]2 | [G,B,EGBe]4 .[G,B,EGBe]2 | %287
 .[^F,A,D^FAd]2 z4 | z6 | z6 | z6 |!p! z6 | z6 | z6 | z6 |!f! !>!e!>(!d_dc_cB | A_AG_GF_F | %297
 ED_DC_CB,!>)! | A,_A,[I:staff +1]G,_G,F,E, |!p![I:staff -1] z6 | z6 | z6 | z6 | %303
!f!!>(! [eg][d_g] [_df][c_f] [_ce][B=d] | [A_d][_Ac] [G_c][_GB] [F=A][_F_A] | %305
 [EG][D_G] [_DF][C_F] [_CE][B,=D]!>)! | [A,_D][^G,C] [=G,_C][^F,B,] [=F,A,][E,G,] | %307
!p! .[D,^F,] z z2!f! .[DA]2 | z4 .[DA]2 | z [DA] z [DA] z [DA] | z2 .[DA]2 z2 | z2 z2!p! .[_DGB]2 | %312
 .[_DGBf].[DGBf] .[DGBf]2 .[DGB]2 | .[_DGBf].[DGB].[DGBf].[DGB].[DGBf].[DGB] | %314
 .[_DGBf]2 .[DGBf]2 z2 | z2 z2 .[C_Ace]2 | .[C_Ace_a].[CAcea] .[CAcea]2 z2 | z2 z2 .[GB^cg^c']2 | %318
 .[GB^cg^c'^f'].[GBcgc'f'] .[GBcgc'f']2 .[Ac=egc'=e']2 | .[d^fad']2 z4 | z6 | z6 | z6 | %323
 z2 .^C.=E .C.D | z6 | z6 | z6 | z6 | z6 | z6 | z6 | z6 | z6 | z6 | z6 | z6 | z6 | z6 | z6 | z6 | %340
 z6 | z6 | z6 | z6 | z2!f! [cc'][ee'] [cc'][dd'] | !>![ee'][cc'] [ee'][dd'] [cc'][Aa] | %346
 z2 [cc'][ee'] [cc'][dd'] | !>![ee'][cc'] [ee'][dd'] [cc'][Aa] | z2 [cc'][ee'] [cc'][dd'] | %349
 !>![ee'][cc'] [ee'][dd'] [cc'][Aa] | !>![ee'][cc'] [ee'][dd'] [cc'][Aa] | %351
 !>![ee'][cc'] [ee'][dd'] [cc'][Aa] | !>![ee'][cc'] [ee'][dd'] [cc'][Aa] | %353
 !>![ee'][cc'] [ee'][dd'] [cc'][Aa] | !>![ee'][cc'] [ee'][dd'] [cc'][Aa] | %355
 !>![ee'][cc'] [ee'][dd'] [cc'][Aa] | [ee']2 z4 | z6 | z6 | z6 | z6 | z6 | z6 | z6 |!p!!<(! z6 | %365
 z6 | z6 | z6!<)! |!sfz! [gbd'g']2!ff! [gbd'g'][gbd'g'] [gbd'g'][gbd'g'] | %369
 [gbd'g']2 [gbd'g'][gbd'g'] [gbd'g'][gbd'g'] | [gbd'g']2 [gbd'g'][gbd'g'] [gbd'g'][gbd'g'] | %371
 [gbd'g']2 [gbd'g'][gbd'g'] [gbd'g'][gbd'g'] | [gbd'g']2 [gbd'g'][gbd'g'] [gbd'g'][gbd'g'] | %373
 [gbd'g']2 [gbd'g'][gbd'g'] [gbd'g'][gbd'g'] | [d^fad']2 [fad'^f'][fad'f'] [fad'f'][fad'f'] | %375
 [=ea=e']2 [eae'][eae'] [eae'][eae'] | [^fad'^f']2 [gbd'g'][gbd'g'] [gbd'g'][gbd'g'] | %377
 [gbd'g']2 [gbd'g'][gbd'g'] [gbd'g'][gbd'g'] | [gbd'g']2 [gbd'g'][gbd'g'] [gbd'g'][gbd'g'] | %379
 [gbd'g']2 [gbd'g'][gbd'g'] [gbd'g'][gbd'g'] | [gbd'g']2 [gbd'g'][gbd'g'] [gbd'g'][gbd'g'] | %381
 [gbd'g']2 [gbd'g'][gbd'g'] [gbd'g'][gbd'g'] | %382
 [^fad'^f']2 [D^FAdfad'f'][DFAdfad'f'] [DFAdfad'f'][DFAdfad'f'] | %383
 [D^FAd^fad'^f']2 [DFAdfad'f'][DFAdfad'f'] [^C=EA^c=eg^c'=e'][CEAcegc'e'] | [D^FAd^fad'^f']2 z4 | %385
 z6 | z6 | z6 | z2 [d^fd'][dfd'] [dfd'][dfd'] | [^fad'^f']2 [dfd'][dfd'] [dfd'][dfd'] | %390
 [^fad'^f']2 [dfd'][dfd'] [dfd'][dfd'] | [^fad'^f']2 [dfd'][dfd'] [dfd'][dfd'] | [gbd'g']2 z4 | %393
 [Gdg]2 [Gdg]2 z2 | [Geg]2 [Geg]2 z2 | [DAd]2 [DAd]2 z2 | [DBd]2 [DBd]2 z2 | [CE_A]2 [CEA]2 z2 | %398
 [B,DG]2 [B,DG]2 z2 | [D^FAd]2 [DFAd]2 z2 | [GBdgb][GBdgd'] [GBdgg']2 z2 | [Gdg]2 [Gdg]2 z2 | %402
 [Geg]2 [Geg]2 z2 | [DAd]2 [DAd]2 z2 | [DBd]2 [DBd]2 z2 | [CE_A]2 [CEA]2 z2 | [B,DG]2 [B,DG]2 z2 | %407
 [D^FAd]2 [DFAd]2 z2 | [B,DG]2 [B,DG]2 z2 | [D^FAd]2 [DFAd]2 z2 | [B,DG]2 [B,DG]2 z2 | %411
!<(! [D^FAd]2 [DFAd]2 z2 | [D^FAd]2 [DFAd]2 z2 | [D^FAd]2 [DFAd]2 z2!<)! | %414
!ff! [GBgbg']2 [FBdfd'f']2 [EGcege']2 | [FAfaf']2 [EAcec'e']2 [DFBdfd']2 | %416
 [EGege']2 [DGBdbd']2 [CE_Acec']2 | [_ac'e'_a'][ac'e'a'] [ac'e'a'][ac'e'a'] [ac'e'a']2 | %418
 [^fad'^f'][fad'f'] [fad'f'][fad'f'] [fad'f']2 | [GBg]2 [DFdf]2 [CEGe]2 | [FAf]2 [Ece]2 [DFd]2 | %421
 [EGe]2 [DBd]2 [CEc]2 | [_Ace_a][Acea] [Acea][Acea] [Acea]2 | [^FAd^f][FAdf] [FAdf][FAdf] [FAdf]2 | %424
 [Gg]2 [gg']2 z2 | [^F^f]2 [f^f']2 z2 | [Gg]2 [gg']2 z2 | [^F^f]2 [f^f']2 z2 | %428
!<(! [DGBdgbd'g']2 [DGBdgbd'g']2 z2 | [DGBdgbd'g']2 [DGBdgbd'g']2 z2 | %430
 [DGBdgbd'g']2 [DGBdgbd'g']2 z2!<)! |!fff! [DGBdgbd'g']2 [DGBdgbd'g']2 [DGBdgbd'g']2 | %432
 [DGBdgbd'g']2 [DGBdgbd'g']2 [DGBdgbd'g']2 | [DGBdgbd'g']2 [DGBdgbd'g']2 [DGBdgbd'g']2 | %434
 [DGBdgbd'g']2 [DGBdgbd'g']2 [DGBdgbd'g']2 | [DGBdgbd'g']2 [DGBdgbd'g']2 [DGBdgbd'g']2 || z6 | z6 | %438
!f! .e2 z .b .b2 | .e2 !>!g4- | g6- |!>(! g6- | g6-!>)! |!pp! g z z4 | z6 | z6 | z6 | z6 | z6 | %449
 z6 | z6 | z6 | !fermata!z6 | z6 | z6 | z6 | z6 | z6 | z6 | z6 | z6 | z6 | z6 | z6 | z6 | z6 | z6 | %467
 z6 | z6 | z6 | z6 |!pp! (!//-!D3 E3 | !//-!D3 E3 |"_dim." !//-!D3 E3 |!ppp! [Dd^f]2) z4 | %475
 [dg]2 z4 |] %476
V:4
 z6 | z6 | z6 | z6 |[K:treble] !//-!D3 ^F3 | !//-!D3 ^F3 | !//-!D3 ^F3 | !//-!D3 ^F3 | z6 | z6 | %10
 z6 | z6 | !//-!^F3 A3 | !//-!^F3 A3 | !//-!^F3 A3 | !//-!^F3 A3 | z6 | z6 | z6 | z6 | z6 | z6 | %22
 z6 | z6 | z6 | z6 | z6 | z6 | z6 | z6 | z6 | z6 |[K:bass] .[G,,E,]2!p! .E,2 .B,,2 | %33
 .[G,,,G,,]2 z4 | .[G,,,G,,]2 z4 | .[G,,,G,,]2 z4 | .[F,,,F,,]2 z4 | .[F,,,F,,]2 z4 | %38
 .[F,,,F,,]2 z4 | .[F,,,F,,]2 z4 | .[G,,,G,,]2 z4 | .[G,,G,]2 z4 | .[G,,G,]2 z4 | .[G,,G,]2 z4 | %44
 .[F,,F,]2 z4 | .[F,,F,]2 z4 | .[F,,F,]2 z4 | .[F,,F,]2 z4 | .[G,,G,]2 z4 | z2 .B,2 .G,2 | %50
 z2 .B,2 .F,2 | z2 .G,2 .=E,2 | z2 .G,2 .E,2 | z2 .G,2 .D,2 | z2 .^F,,2 .^F,2 | z2 .A,2 .=E,2 | %56
 z6 | z6 | z6 | z6 | z6 | z6 | z6 | z6 | [D,,D,]6- | [D,,D,]6- | [D,,D,]6- | [D,,D,]6 | %68
 .[G,,C,G,]2 z4 | .[C,,C,]2 z4 | .[C,,C,]2 z4 | .[C,,C,]2 z4 | [D,,D,]6- | [D,,D,]6- | [D,,D,]6- | %75
 [D,,D,]6 | .[G,,C,G,]2 z4 | .[C,,C,]2 z4 | .[C,,C,]2 z4 | .[C,,C,]2 z4 | .[D,A,]2 z4 | z6 | z6 | %83
 z2 z2 .[D,,G,,D,]2 | .[G,,B,,G,]2 z4 | .[G,,G,]2 z4 | .[G,,G,]2 z4 | .[G,,G,]2 z4 | .[F,,F,]2 z4 | %89
 .[F,,F,]2 z4 | .[F,,F,]2 z4 | .[F,,F,]2 z4 | .[G,,G,]2 z4 | .[G,,G,]2 z4 | .[G,,G,]2 z4 | %95
 .[G,,G,]2 z4 | .[F,,F,]2 z4 | .[F,,F,]2 z4 | .[F,,F,]2 z4 | .[F,,F,]2 z4 | z2 .[B,D]2 .[G,B,]2 | %101
 z2 .[B,D]2 .[G,B,]2 | z2 .[B,D]2 .[G,B,]2 | z2 .[B,D]2 .[G,B,]2 | z2 .[B,D]2 .[G,B,]2 | %105
 z2 .[B,D]2 .[G,B,]2 | z2 .A,2 .A,,2 | z2 .A,2 .A,,2 | z2 .D,2 .D,,2 | z2 .[B,D]2 .[G,B,]2 | %110
 z2 .[B,D]2 .[G,B,]2 | z6 | z6 | z6 | z6 | z6 | z6 | z6 | z6 | z6 | .[C,G,]2 z4 | .[C,G,]2 z4 | %122
 .[C,G,]2 z4 | .[C,G,]2 z4 | z6 | z6 | z6 | z6 | z6 | z6 | z6 | z6 | z6 | z6 | z6 | z6 | z4 .D,2 | %137
 .G,2 z2 .G,2 | .F,2 z2 .F,2 | .=E,2 z2 .E,2 | .E,2 z2 .E,2 | .D,2 .=E,2 .G,2 | .F,2 .=E,2 .D,2 | %143
 .=E,2 z2 .E,2 | .F,2 z4 | z6 | z6 | z6 | z6 | z6 | z2 z2 .[D,A,C]2 | .[G,,G,]2 z4 | z6 | z6 | z6 | %155
 z6 | z6 | z6 | z6 | z6 | z6 | z6 | z6 | z6 | z6 | z6 | z6 | z6 | z6 | z6 | z6 | z6 | z4 .[^C=E]2 | %173
 .[=B,D]2 z2 .[^C=E]2 | .[A,^C]2 z2 .[=B,D]2 | .[^G,=B,]2 z2 .[A,^C]2 | .[A,^C]2 z2 .[C=E]2 | %177
 .[^C=E]2 z2 .[DF]2 | .[^C=E]2 .[=B,D]2 .[A,C]2 | .[^C=E]2 z2 .[=B,D]2 | .[=B,D]2 z2 .[DF]2 | %181
 .[^C=E]2 z2 .[DF]2 | .[=B,D]2 z2 .[^C=E]2 | .[A,^C]2 z2 .[=B,D]2 | .[=B,D]2 z2 .[DF]2 | %185
 .[DF]2 z2 .[=EG]2 | .[DF]2 .[^C=E]2 .[=B,D]2 | .[DF]2 z2 .[DF]2 | .[^C=E]2 z4 | z6 | z6 | z6 | %192
 z6 | z6 | z6 | z6 | z6 | z6 | z6 | z6 |[K:treble] z2 (!>![^G,^G]2 [A,A]2) | %201
 z2 (!>![^G^g]2 [Aa]2) | z2 (!>![^G,^G]2 [A,A]2) |[K:bass] z2 [A,,A,]2 [^A,,^A,]2 | %204
[K:B] [B,,,B,,]2 z2 z2 | [B,,,B,,]2 z2 z2 | [B,,,B,,]2 z2 z2 | [B,,,B,,]2 z2 z2 | %208
 [B,,,B,,]2 z2 z2 | [B,,,B,,]2 z2 z2 | [B,,,B,,]2 z2 z2 | [B,,,B,,]2 z2 z2 | [B,,,B,,]2 z2 z2 | %213
 [B,,,B,,]2 z2 z2 | [B,,,B,,]2 z2 z2 | [B,,,B,,]2 z2 z2 | [B,,,B,,]2 z2 z2 | [B,,,B,,]2 z2 z2 | %218
 [B,,,B,,]2 z2 z2 | [B,,,B,,]2 z2 z2 | [B,,,B,,]2 z2 z2 | [B,,,B,,]2 z2 z2 | [B,,,B,,]2 z2 z2 | %223
 [B,,,B,,]2 z2 z2 | [B,,,B,,]2 z2 z2 | [B,,,B,,]2 z2 z2 | [B,,,B,,]2 z2 z2 | [B,,,B,,]2 z2 z2 | %228
 [B,,,B,,]2 z2 z2 | [B,,,B,,]2 z2 z2 | [B,,,B,,]2 z2 z2 | [B,,,B,,]2 z2 z2 | [B,,,B,,]2 z2 z2 | %233
 [B,,,B,,]2 z2 z2 | [B,,,B,,]2 z2 z2 | [B,,,B,,F,B,D]2 .[B,,,B,,].[D,,D,] .[B,,,B,,].[C,,C,] | %236
 .[D,,D,D]2 .[C,,C,C]2 .[B,,,B,,B,]2 | z2 .[=G,,,=G,,=G,].[B,,,B,,B,] .[G,,,G,,G,].[=A,,,=A,,=A,] | %238
 .[B,,,B,,B,]2 .[=A,,,=A,,=A,]2 .[=G,,,=G,,=G,]2 | z2 .[B,,,B,,].[D,,D,] .[B,,,B,,].[C,,C,] | %240
 .[D,,D,D]2 .[C,,C,C]2 .[B,,,B,,B,]2 | z2 .[G,,,G,,G,].[B,,,B,,B,] .[G,,,G,,G,].[A,,,A,,A,] | %242
 .[B,,,B,,B,]2 .[A,,,A,,A,]2 .[G,,,G,,G,]2 | B,,2 z4 | z6 | z6 | z6 | z6 | z6 | z6 | z6 | %251
[K:Bb] z6 | z6 | z6 | z6 | z6 | z6 | z6 | z6 | z2 z2 [F,,F,]2 | [B,,B,]4 [B,,B,]2 | %261
 [A,,A,]4 [A,,A,]2 | [G,,G,]4 [G,,G,]2 | .[^F,,^F,]2 .[A,,A,]2 .D,2 | %264
 .[^C,^C]2 .[B,,B,]2 .[G,,G,]2 | .[^F,,^F,]2 .[A,,A,]2 .D,2 | .[^C,^C]2 .[B,,B,]2 .[G,,G,]2 | %267
 .[^F,,^F,]2 .[A,,A,]2 .D,2 | .[^C,^C]2 .[B,,B,]2 .[G,,G,]2 | .[^C,^C]2 .[B,,B,]2 .[G,,G,]2 | %270
 .[^C,^C]2 .[B,,B,]2 .[G,,G,]2 | [^C,^C]4 .[C,C]2 | z6 | [^C,^C]4 .[C,C]2 | z6 | %275
 [=B,,=B,]4 .[B,,B,]2 | z6 | [A,,A,]4 .[A,,A,]2 | z6 | z6 | z6 | z6 | z6 | z6 | z6 | z6 | z6 | z6 | %288
 z6 | z6 | z6 | z2 A,,A,,A,,A,, | D,2 A,,A,,A,,A,, | D,2 A,,A,,A,,A,, | D,2 A,,2 D,2 | z6 | z6 | %297
 B,C_A,G,_G,F, | _F,E,D,_D,C,B,, | [D,,A,,D,^F,] z A,,A,,A,,A,, | D,2 A,,A,,A,,A,, | %301
 D,2 A,,A,,A,,A,, | D,2 A,,2 D,2 | z6 | z6 | z6 | z6 | z6 | z6 | z6 | z6 | z6 | z6 | z6 | z6 | z6 | %316
 z6 | z6 | z6 | .[D,,D,]2 z4 | z6 | .F2 .=E2 .D2 | z6 | z6 | .=E2 .D2 .^C2 | .E2 .D2 .C2 | z6 | %327
 z2 .=B,.D .B,.C | .D2 .C2 .=B,2 | .D2 .C2 .B,2 | z6 | z2 .A,.^C .A,.=B, | .^C2 .=B,2 .A,2 | z6 | %334
 z6 | [D,,D,]6- | [D,,D,]6- | [D,,D,]6- | [D,,D,]6- | [D,,D,]6- | [D,,D,]6- | [D,,D,]6- | %342
 [D,,D,]6- | [D,,D,]6- | [D,,D,]2 z4 | z6 | z6 | z6 | z6 | z6 | z6 | z6 | z6 | z6 | z6 | z6 | z6 | %357
 z6 | z6 | z6 | z6 | z6 | z6 | z6 | z2 ^C=C =B,_B, | A,^G, =G,^F, =F,=E, | %366
 E,D, [^C,^C][=C,=C] [A,,A,][G,,G,] | [^F,,^F,][E,,E,] [D,,D,][C,,C,] [B,,,B,,][A,,,A,,] | %368
 [G,,,G,,]2 [G,B,D][G,B,D] [G,B,D][G,B,D] | [G,B,D]2 [G,B,D][G,B,D] [G,B,D][G,B,D] | %370
 [G,B,D]2 [G,B,D][G,B,D] [G,B,D][G,B,D] | [G,B,D]2 [G,B,D][G,B,D] [G,B,D][G,B,D] | %372
 [G,B,D]2 [G,B,D][G,B,D] [G,B,D][G,B,D] | [G,B,D]2 [G,B,D][G,B,D] [G,B,D][G,B,D] | %374
 [A,D]2 [D^F][DF] [DF][DF] | [A,=E]2 [A,,A,][^A,,^A,] [=B,,=B,][^C,^C] | %376
 [D,D]2 [G,B,][G,B,] [G,B,][G,B,] | [G,B,D]2 [G,B,D][G,B,D] [G,B,D][G,B,D] | %378
 [G,B,D]2 [G,B,D][G,B,D] [G,B,D][G,B,D] | [G,B,D]2 [G,B,D][G,B,D] [G,B,D][G,B,D] | %380
 [G,B,D]2 [G,B,D][G,B,D] [G,B,D][G,B,D] | [G,B,D]2 [G,B,D][G,B,D] [G,B,D][G,B,D] | [A,D]2 z4 | z6 | %384
 z6 | z6 | z6 | z6 | z2 D,D, D,D, | C,2 D,D, D,D, | C,2 D,D, D,D, | C,2 D,D, D,D, | %392
 [B,,,D,,G,,B,,]2 z4 | [B,,B,]2 [B,,B,]2 z2 | [C,C]2 [C,C]2 z2 | [^F,,^F,]2 [F,,F,]2 z2 | %396
 [G,,G,]2 [G,,G,]2 z2 | [C,,C,]2 [C,,C,]2 z2 | [D,,D,]2 [D,,D,]2 z2 | [D,A,]2 [D,A,]2 z2 | z6 | %401
 [B,,B,]2 [B,,B,]2 z2 | [C,C]2 [C,C]2 z2 | [^F,,^F,]2 [F,,F,]2 z2 | [G,,G,]2 [G,,G,]2 z2 | %405
 [C,,C,]2 [C,,C,]2 z2 | [D,,D,]2 [D,,D,]2 z2 | [D,A,]2 [D,A,]2 z2 | [D,,D,]2 [D,,D,]2 z2 | %409
 [D,A,]2 [D,A,]2 z2 | [D,,D,]2 [D,,D,]2 z2 | [D,A,]2 [D,A,]2 z2 | [A,,D,A,]2 [A,,D,A,]2 z2 | %413
 [A,,D,^F,A,]2 [A,,D,F,A,]2 z2 | z6 | z6 | z6 | [CE][CE] [CE][CE] [CE]2 | %418
 [D^F][DF] [DF][DF] [DF]2 | [G,B,]2 [F,B,]2 [E,G,]2 | [F,A,]2 [E,A,C]2 [D,F,B,]2 | %421
 [E,G,]2 [D,G,B,]2 [C,E,_A,]2 | [C,E,][C,E,] [C,E,][C,E,] [C,E,]2 | %423
 [D,^F,][D,F,] [D,F,][D,F,] [D,F,]2 | z6 | z6 | z6 | z6 | z6 | z6 | z6 | z6 | z6 | z6 | z6 | z6 || %436
 z6 | z6 | z6 | z6 | z6 | z6 | z6 | z6 | z6 | z6 | z6 | z6 | z6 | z6 | z6 | z6 | !fermata!z6 | z6 | %454
 z6 | z6 | z6 | z6 | z6 | z6 | z6 | z6 | z6 | z6 | z6 | z6 | z6 | z6 | z6 | z6 | z6 | z6 | z6 | %473
 z6 | [^F,A,]2 z4 | [G,B,]2 z4 |] %476
V:5
 x6 | x6 | x6 | x6 | x6 | x6 | x6 | x6 | x6 | x6 | x6 | x6 | x6 | x6 | x6 | x6 | x6 | x6 | x6 | %19
 x6 | x6 | x6 | x6 | x6 | x6 | x6 | x6 | x6 | x6 | x6 | x6 | x6 | x6 |[K:bass] x6 | x6 | x6 | x6 | %37
 x6 | x6 | x6 | x6 | x6 | x6 | x6 |[K:treble] x6 | x6 | x6 | x6 | x6 | x6 | x6 | x6 | x6 | x6 | %54
 x6 | x6 | x6 | x6 | x6 | x6 | x6 | x6 | x6 | x6 | x6 | x6 | x6 | x6 | x6 | x6 | x6 | x6 | x6 | %73
 x6 | x6 | x6 | x6 | x6 | x6 | x6 | x6 | x6 | x6 | x6 | x6 | x6 | x6 | x6 | x6 | x6 | x6 | x6 | %92
 x6 | x6 | x6 | x6 | x6 | x6 | x6 | x6 | x6 | x6 | x6 | x6 | x6 | x6 | x6 | x6 | x6 | x6 | x6 | %111
 x6 | x6 | x6 | x6 | x6 | x6 | x6 | x6 | x6 | .g2 z4 | x6 | x6 | x6 | x6 | x6 | x6 | x6 | x6 | x6 | %130
 x6 | x6 | x6 | x6 | x6 | x6 |!8va(! x6!8va)! | x6 | x6 | x6 | x6 | x6 | x6 | x6 | x6 | x6 | x6 | %147
 x6 | x6 | x6 | x6 | x6 | x6 | x6 | x6 | x6 | x6 | x6 | x6 | x6 | x6 | x6 | x6 | x6 | x6 | x6 | %166
 x6 | x6 | x6 | x6 | x6 | x6 | x6 | x6 | x6 | x6 | x6 | x6 | x6 | x6 | x6 | x6 | x6 | x6 | x6 | %185
 x6 | x6 | x6 | x6 | x6 | x6 | x6 | x6 | x6 | x6 | x6 | x6 | x6 | x6 | x6 |!8va(! x6 | x6 | %202
 x6!8va)! | x6 |[K:B] x6 | x6 | x6 | x6 | x6 | x6 | x6 | x6 | x6 | x6 | x6 | x6 | x6 | x6 | x6 | %219
 x6 | x6 | x6 | x6 | x6 | x6 | x6 | x6 | x6 | x6 | x6 | x6 | x6 | x6 | x6 | x6 | x6 | x6 | x6 | %238
 x6 | x6 | x6 | x6 | x6 | x6 | x6 | x6 | x6 | x6 | x6 | x6 | x6 |[K:Bb] x6 | x6 | x6 | x6 | x6 | %256
 x6 | x6 | x6 | x6 | x6 | x6 | x6 | x6 | x6 | x6 | x6 | x6 | x6 | x6 | x6 | x6 | x6 | x6 | x6 | %275
 x6 | x6 | x6 | x6 | x6 | x6 | x6 | x6 | x6 | x6 | x6 | x6 | x6 | x6 | x6 | x6 | x6 | x6 | x6 | %294
 x6 | x6 | x6 | x6 | x6 | x6 | x6 | x6 | x6 | x6 | x6 | x6 | x6 | x6 | x6 | x6 | x6 | x6 | x6 | %313
 x6 | x6 | x6 | x6 | x6 | x6 | x6 | x6 | x6 | x6 | x6 | x6 | x6 | x6 | x6 | x6 | x6 | x6 | x6 | %332
 x6 | x6 | x6 | x6 | x6 | x6 | x6 | x6 | x6 | x6 | x6 | x6 | x6 | x6 | x6 | x6 | x6 | x6 | x6 | %351
 x6 | x6 | x6 | x6 | x6 | x6 | x6 | x6 | x6 | x6 | x6 | x6 | x6 | x6 | x6 | x6 | x6 | x6 | x6 | %370
 x6 | x6 | x6 | x6 | x6 | x6 | x6 | x6 | x6 | x6 | x6 | x6 | x6 | x6 | x6 | x6 | x6 | x6 | x6 | %389
 x6 | x6 | x6 | x6 | x6 | x6 | x6 | x6 | x6 | x6 | x6 | x6 | x6 | x6 | x6 | x6 | x6 | x6 | x6 | %408
 x6 | x6 | x6 | x6 | x6 | x6 | x6 | x6 | x6 | x6 | x6 | x6 | x6 | x6 | x6 | x6 | x6 | x6 | x6 | %427
 x6 | x6 | x6 | x6 | x6 | x6 | x6 | x6 | x6 || x6 | x6 | x6 | x6 | x6 | x6 | x6 | x6 | x6 | x6 | %446
 x6 | x6 | x6 | x6 | x6 | x6 | x6 | x6 | x6 | x6 | x6 | x6 | x6 | x6 | x6 | x6 | x6 | x6 | x6 | %465
 x6 | x6 | x6 | x6 | x6 | x6 | x6 | x6 | x6 | x6 | x6 |] %476
V:6
 z6 | z6 | z6 | z6 | z6 | z6 | z6 | z6 | z6 | z6 | z6 | z6 | z6 | z6 | z6 | z6 | z6 |!pp! z6 | z6 | %19
 z6 | z6 | z6 | z6 | z6 | z6 | z6 | z6 | z6 | z6 | z6 | z6 | z4!f! .[A,DAd]2 | %32
 .[DBd]2[K:bass]!p! .[G,B,D]2 .[D,G,B,]2 | z2 .[G,B,D]2 .[D,G,B,]2 | z2 .[G,B,D]2 .[D,G,B,]2 | %35
 z2 .[G,B,D]2 .[D,G,B,]2 | z2 .[_A,CE]2 .[E,A,C]2 | z2 .[_A,CE]2 .[E,A,C]2 | %38
 z2 .[_A,CE]2 .[E,A,C]2 | z2 .[_A,CE]2 .[E,A,C]2 | z2 .[G,B,D]2 .[D,G,B,]2 | %41
 z2 .[G,B,D]2 .[D,G,B,]2 | z2 .[G,B,D]2 .[D,G,B,]2 | z2 .[G,B,D]2 .[D,G,B,]2 | %44
 z2 .[_A,CE]2 .[E,A,C]2 | z2 .[_A,CE]2 .[E,A,C]2 | z2 .[_A,CE]2 .[E,A,C]2 | %47
 z2 .[_A,CE]2 .[E,A,C]2 | z6 |[K:treble]!p! z2 .D2 .B,2 | z2 .D2 .B,2 | z2 .B,2 .G,2 | %52
 z2 .B,2 .G,2 | z2 .B,2 .G,2 | z2 .A,2 .D2 | z2 .^C2 .A,2 | z2 .A,2 .^F,2 | z2 .B,2 .G,2 | %58
 z2 .B,2 .F,2 |[K:bass] z2 .G,2 .=E,2 | z2 .G,2 .E,2 | z2 .G,2 .D,2 | z2 .A,2 .^F,2 | %63
 z2 .A,2 .^C2 |[K:treble] z2!p! .[D^FA]2 .[A,DF]2 | z2 .[D^FA]2 .[A,DF]2 | z2 .[D^FA]2 .[A,DF]2 | %67
 z2 .[D^FA]2 .[A,DF]2 |!f! z2 .G.B .G.A | .B2 .E.G .E.F | .G2 .B,.E .B,.D | !tenuto!E2 .E.E .E.E | %72
 D2!p! .[D^FA]2 .[A,DF]2 | ^F2 .[DFA]2 .[A,DF]2 | z2 .[D^FA]2 .[A,DF]2 | ^F2 .[DFA]2 .[A,DF]2 | %76
!f! z2 .G.B .G.A | .B2 .E.G .E.F | .G2 .B,.E .B,.D | !tenuto!E2 .E.E .E.E |!f! D6- | D6- | D6- | %83
 D4 .[dg]2 | .[DGd]2 z4 | .[G,DBg]2 z4 | .[G,DBg]2 z4 | .[G,DBg]2 z4 | .[CEc_a]2 z4 | %89
 .[CEc_a]2 z4 | .[CEc_a]2 z4 | .[CEc_a]2 z4 | .[DBg]2 .g.b .g.a | .b2 .a.b .g.b | %94
 (.Pa.g) .g.b .g.a | .b2 .a.b .g.b | ._a2 .a.c' .a.b | .c'2 .b.c' ._a.c' | (.Pb._a) .a.c' .a.b | %99
 .c'2 ._a.c' .b.a | .g2 .G2 .D2 | z2 .G2 .D2 | z2 .G2 .D2 | z2 .G2 .D2 | z2 .G2 .D2 | z2 .G2 .D2 | %106
 z2 .[D^FA]2 .[A,DF]2 | z2 .[^C=EA]2 .[A,EA]2 | z2 .[D^FA]2 .[DAd]2 | z2 .G2 .D2 | z2 .G2 .D2 | %111
 z2 .G2 .D2 | z2 .G2 .g2 | z2 .G2 .g2 | z2 .[A,A]2 .[A,^FA]2 | z2 .[D^F]2 .[^C=E]2 | %116
 .[D^FA^f]2!pp! z4 | [Ad^f]6- | [Adf]6- | [Adf]6 |!f! z2 .[EBg]2 .[G,EB]2 | z2 .[EBg]2 .[G,EB]2 | %122
 z2 .[EBg]2 .[G,EB]2 | z2 .[EBg]2 .[G,EB]2 | [DA^f]6- | [DAf]6- | [DAf]6- | [DAf]6 | %128
!f! z2 .G.B .G.A | .B2 .E.G .E.F | .G2 .B,.E .B,.D | .E2 .E.E .E.E | [DA]6- | [DA]6- | [DA]6- | %135
 [DA]4!ff! [D^FAd]2 | [DGBd]2 z4 |!mf! z6 | z6 | z6 | z6 | z6 | z6 | z6 |[K:bass] F,=E, D,E, F,G, | %145
 A,2 z4 |[K:treble] z6 | z6 | z6 | z6 | z6 | B,2 z4 | z6 | z6 | z6 | z6 | z6 | z6 | z6 | z6 | z6 | %161
 z6 | .[FA].[FA] .[FA]2 z2 | .[=EA].[EA] .[EA]2 z2 | .[DA].[DA] .[DA]2 z2 | .G2 z2 .G2 | %166
 .F2 z2 .F2 | .=E2 z2 .E2 | .E2 z2 .E2 |!<(! .D2 .=E2 .G2 | .F2 .=E2 .D2 | .F2 z2 .F2!<)! | %172
!f! .=E2 z2!p! [^c=e^c']2 | [=Bd=b]2 z2 [^c=e^c']2 | [A^ca]2 z2 [=Bd=b]2 | [^G=B^g]2 z2 [A^ca]2 | %176
 [A^ca]2 z2 [c=e^c']2 | [^c=e^c']2 z2 [dfd']2 | [^c=e^c']2 [=Bd=b]2 [Aca]2 | %179
 [^c=e^c']2 z2 [=Bd=b]2 | [=Bd=b]2 z2 [dfd']2 | [^c=e^c']2 z2 [dfd']2 | [=Bd=b]2 z2 [^c=e^c']2 | %183
 [A^ca]2 z2 [=Bd=b]2 | [=Bd=b]2 z2 [dfd']2 | [dfd']2 z2 [=eg=e']2 | [dfd']2 [^c=e^c']2 [=Bd=b]2 | %187
 [dfd']2 z2 [dfd']2 | [^c=e^c']2 z2 .[FAf]2 | .[=EG=e]2 z2 .[FAf]2 | .[DFd]2 z2 .[=EG=e]2 | %191
 .[^C=E^c]2 z2 .[DFd]2 | .[DFd]2 z2 .[FAf]2 | .[FAf]2 z2 .[GBg]2 | .[FAf]2 .[=EG=e]2 .[DFd]2 | %195
 .[FAf]2 z2 .[=EG=e]2 | .[=EG=e]2 z2 .[GBg]2 | .[FAf]2 z2 .[GBg]2 | .[=EG=e]2 z2 .[FAf]2 | %199
 .[DFd]2 z2 .[=EG=e]2 | .[=EG=e]2 z2 .[GBg]2 | .[GBg]2 z2 .[Aca]2 | .[GBg]2 .[FAf]2 .[=EG=e]2 | %203
 .[GBg]2 z2 .[GBg]2 |[K:B] [F=A=df]2 z4 | z!p! _G,_C_ECG, | z _G,_C_ECG, | z _G,_C_ECG, | %208
 z =G,=B,=DB,G, | z =G,B,=DB,G, | z =G,B,=DB,G, | z =G,B,=DB,G, | z2 z2!<(! ([Ff]2 | [Bb]4 [Bb]2 | %214
 [^A^a]4 [Aa]2 | [=A=a]4 [Aa]2 | !>![=G=g]4)!<)!!>(! ([Gg]2 | [Ff]2 [=G=g]2 [Bb]2 | %218
 [=A=a]2 [=G=g]2 [Ff]2!>)! | [=G=g]4) ([Gg]2 | [Bb]6-) | [Bb]2 z4 | z _G,_C_ECG, | z _A,_C_FCA, | %224
 z _A,_C_FCA, | z _B,_D_FDB, | z _B,_D_FDB, | z2 z2 F2 | B4 B2 | A4 A2 | =A4 A2 | G4 G2 | %232
 E2 F2 =A2 | =G2 F2 E2 | =G4 G2 | [B,D]6- | [B,D]6- | [B,D]6- | [B,D]6- | [B,D]6- | [B,D]6- | %241
 [B,D]6- | [B,D]6- | [B,D]2 z4 | z6 | z6 | z6 | z6 | z2 [=C_E][E_G] [CE][=D=F] | %249
 [_E_G] z [=D=F] z [=CE] z | z6 |[K:Bb] G2!mf! z4 | z6 | ^G4 G2 | ^G4 G2 | F2 z4 | z6 | z6 | z6 | %259
 z6 | z6 | z2 z2 [Cc]2 | [Cc]4 [Cc]2 |!f! [Dd][Dd][Dd][Dd] [Dd]2 | .[Ee].[Gg] .[Ee].[Ff] .[Gg]2 | %265
 [Dd][Dd][Dd][Dd] [Dd]2 | .[Ee].[Gg] .[Ee].[Ff] .[Gg]2 | [Dd][Dd][Dd][Dd] [Dd]2 | %268
!<(! .[Ee].[Gg] .[Ee].[Ff] .[Gg]2 | .[Ee].[Gg] .[Ee].[Ff] .[Gg]2 | %270
 .[Ee].[Gg] .[Ee].[Ff] .[Gg]2!<)! |!ff! [Gg]4 .[Gg]2 | [Dd]4 .[Dd]2 | [Gg]4 .[Gg]2 | [Dd]4 .[Dd]2 | %275
!f! [df]4 .[df]2 | [Dd]4 .[Dd]2 |!mf! [ce^f]4 .[cef]2 | [Dd]4 .[Dd]2 |!>(! A4 .A2 | G4 .G2 | %281
 F4 .F2 | E4 .E2 | D4 .D2 | E4 .E2!>)! |!p! D4 .D2 | E4 .E2 | [Dd]4 [Dd]2 | [Dd]4 [Dd]2 | %289
 [Dd]4 [Dd]2 | [Dd]4 [Dd]2 |!<(! .[Dd]2 z4 | .[Dd]2 z4 | .[Dd]2 z4 | .[Dd]2!<)! z4 | %295
!p! z2 .[Gg].[Bb] .[Gg].[Aa] | .[Bb] z .[Ee].[Gg] .[Ee].[Ff] | .[Gg] z .[B,B].[Ee] .[B,B].[Dd] | %298
 .[Ee] z .[Ee].[Ee] .[Ee].[Ee] | .[Dd] z z4 |!<(! .[Dd]2 z4 | .[Dd]2 z4 | .[Dd]2!<)! z4 | %303
!p! z2 .[Gg].[Bb] .[Gg].[Aa] | .[Bb] z .[Ee].[Gg] .[Ee].[Ff] | .[Gg] z .[B,B].[Ee] .[B,B].[Dd] | %306
 .[Ee] z .[Ee].[Ee] .[Ee].[Ee] | .[Dd] z z4 | z6 | z6 |!pp! z6 | z6 | z6 | z6 | z6 | z6 | z6 | %317
 z2 z2 .B,2 | .B,.B, .B,2 z2 |!p! z6 | z6 | z6 | z6 | z6 | z6 | z6 | z6 | z6 | z6 | z6 | z6 | z6 | %332
 z6 | z6 | z6 | z6 | z6 | z6 | z6 | z6 | z6 | z6 | z6 | z6 | z6 | z6 | z6 | z6 | z6 | z6 | z6 | %351
 z6 |!f! ([A,C^F]4 [B,DG]2) | ([A,C^F]4 [B,DG]2) | ([A,C^F]4 [B,DG]2) | ([A,C^F]4 [B,DG]2) | %356
[K:bass]!f! [^F,A,CD]2 [F,A,CD][F,A,CD] [F,A,CD][F,A,CD] | [^F,A,CD]2 [F,A,CD]2 [F,A,CD]2 | %358
 z2 [^F,A,CD][F,A,CD] [F,A,CD][F,A,CD] | [^F,A,CD]2 [F,A,CD]2 [F,A,CD]2 | [^F,A,CD]2 z4 | %361
 [^F,A,CD]2 z4 | [^F,A,CD]2 z4 | [^F,A,CD]2 z4 | z6 | z6 | z6 | z6 | %368
[K:treble]!sfz! [GBd]2!ff! z2 [Dd]2 | [Gg]4 [Gg]2 | [Ff]4 [Ff]2 | [=E=e]4 [Ee]2 | [_E_e]4 [Ee]2 | %373
 [Dd]2 [=E=e]2 [Gg]2 | [^F^f]2 [=E=e]2 [Dd]2 | [=E=e]4 [Ee]2 | [^F^f]2 z2 [Dd]2 | [Gg]4 [Gg]2 | %378
 [Ff]4 [Ff]2 | [=E=e]4 [Ee]2 | [_E_e]4 [Ee]2 | [Dd]2 [Gg]2 [Bb]2 | [Aa]2 [^F^f]2 [Dd]2 | %383
 [^F^f]4 [=E=e]2 | [Dd]2 z4 | z6 | z6 | z6 | z2 [Dd][Dd] [Dd][Dd] | [D^FAd]2 [Dd][Dd] [Dd][Dd] | %390
 [D^FAd]2 [Dd][Dd] [Dd][Dd] | [D^FAd]2 [Dd][Dd] [Dd][Dd] | [GBd]2 z4 | [DGd]2 [DGd]2 z2 | %394
 [EGe]2 [EGe]2 z2 | [A,DA]2 [A,DA]2 z2 | [B,DB]2 [B,DB]2 z2 | [CE]2 [CE]2 z2 | [B,D]2 [B,D]2 z2 | %399
 [D^Fd]2 [DFd]2 z2 | [B,DGB][B,DGB] [B,DGB]2 z2 | [Gd]2 [Gd]2 z2 | [Ge]2 [Ge]2 z2 | %403
 [DA]2 [DA]2 z2 | [DB]2 [DB]2 z2 | [CE]2 [CE]2 z2 | [B,D]2 [B,D]2 z2 | [^Fd]2 [Fd]2 z2 | %408
 [B,D]2 [B,D]2 z2 | [^Fd]2 [Fd]2 z2 | [B,D]2 [B,D]2 z2 |!<(! [^Fd]2 [Fd]2 z2 | [^Fd^f]2 [Fdf]2 z2 | %413
 [^FAd^f]2 [FAdf]2 z2!<)! |!ff! [G,G]2 [B,B]2 [Cc]2 | [F,F]2 [A,A]2 [B,B]2 | %416
 [E,E]2 [G,G]2 [_A,_A]2 | [_Ae][Ae] [Ae][Ae] [Ae]2 | [Gd][Gd] [Gd][Gd] [Gd]2 | %419
 [G,G]2 [B,B]2 [Cc]2 | [F,F]2 [A,A]2 [B,B]2 | [E,E]2 [G,G]2 [_A,_A]2 | %422
 [_A,E][A,E] [A,E][A,E] [A,E]2 | [G,D][G,D] [G,D][G,D] [G,D]2 | [G,B,DG]2 z4 | [CA]2 A2 z2 | %426
 [G,B,DG]2 z4 | [CA]2 A2 z2 |!<(! [Gg]2 [Gg]2 z2 | [Gg]2 [Gg]2 z2 | [Gg]2 [Gg]2 z2!<)! | %431
!fff! [Gg]2 [Gg]2 [Gg]2 | [Gg]2 [Gg]2 [Gg]2 | [Gg]2 [Gg]2 [Gg]2 | [Gg]2 [Gg]2 [Gg]2 | %435
 [Gg]2 [Gg]2 [Gg]2 || [Ee]6- | [Ee]6- | [Ee]6- | [Ee]6- | [Ee]6- | [Ee]6- | [Ee]6- | %443
 [Ee] z!mf! z4 |"_dim." z6 | z6 | z6 | z6 | z6 |!pp! z6 | z6 | z6 | !fermata!z6 | [GB]6- | [GB]6- | %455
 [GB]6- | [GB]6- | [GB]6- | [GB]6- | [GB]6- | [GB]6 | [Ac]6- | [Ac]2 z4 | z6 | z6 | z6 | z6 | %467
!pp! z6 | z6 | z2 .G.A .B.G | .d z z2 .g z | .a z .b z .g z | .d' z z4 | z6 |!ppp! [Dd]2 z4 | %475
 [G,d]2 z4 |] %476
V:7
 z6 | z6 | z6 | z6 | z6 | z6 | z6 | z6 | z6 | z6 | z6 | z6 | z6 | z6 | z6 | z6 | z6 | %17
 .[D,,D,]2 z4 | .[A,,A,]2 z4 | .[C,,C,]2 z4 | .[^F,,^F,]2 z4 | .[A,,,A,,]2 z4 | .[C,,C,]2 z4 | %23
 .[E,,E,]2 z4 | .[D,,D,]2 z4 | z6 | z6 | z6 | z6 | z6 | z6 | z4 .D,2 | .[G,,,G,,]2 z4 | G,,6- | %34
 G,,6- | G,,6 | F,,6- | F,,6- | F,,6- | F,,6 | G,,6- | G,,6- | G,,6- | G,,6 | F,,6- | F,,6- | %46
 F,,6- | (F,,6 | G,,2) z4 | .[G,,,G,,]2 z4 | .[G,,,G,,]2 z4 | .[G,,,G,,]2 z4 | .[G,,,G,,]2 z4 | %53
 .[G,,,G,,]2 z4 | .[A,,,A,,]2 z4 | .[A,,,A,,]2 z4 | .[D,,D,]2 z4 | .[G,,,G,,]2 z4 | %58
 .[G,,,G,,]2 z4 | .[G,,,G,,]2 z4 | .[G,,,G,,]2 z4 | .[G,,,G,,]2 z4 | .[A,,,A,,]2 z4 | %63
 .[A,,,A,,]2 z4 | .[D,,D,]2 z4 | .[D,,D,]2 z4 | .[D,,D,]2 z4 | .[D,,D,]2 z4 | .[C,,C,]2 z4 | z6 | %70
 z6 | z6 | .[D,,D,]2 z4 | .[D,,D,]2 z4 | .[D,,D,]2 z4 | .[D,,D,]2 z4 | .[C,,C,]2 z4 | z6 | z6 | %79
 z6 | .[D,,D,]2 z4 | z6 | z6 | z2 z2 .[D,,D,]2 | .[G,,,D,,G,,]2 z4 | .D,2 z4 | .D,2 z4 | .D,2 z4 | %88
 .F,2 z4 | .F,2 z4 | .F,2 z4 | .F,2 z4 | .[G,B,]2[K:treble] .[GBd]2 .[GBd]2 | z2 .[GBd]2 .[GBd]2 | %94
 z2 .[GBd]2 .[GBd]2 | z2 .[GBd]2 .[GBd]2 | z2 .[F_Ac]2 .[FAc]2 | z2 .[F_Ac]2 .[FAc]2 | %98
 z2 .[F_Ac]2 .[FAc]2 | z2 .[F_Ac]2 .[FAc]2 |[K:bass] .G,2 z4 | .G,,2 z4 | .G,,2 z4 | .G,,2 z4 | %104
 .G,,2 z4 | .G,,2 z4 | .A,,2 z4 | .A,,2 z4 | .D,2 z4 | .G,,2 .[B,D]2 .[G,B,]2 | %110
 .G,,2 .[B,D]2 .[G,B,]2 | .G,,2 .[B,D]2 .[G,B,]2 | .G,,2 .[G,B,]2 .[G,,G,]2 | %113
 .G,,2 .[G,B,]2 .[G,,G,]2 | .A,,2 z2 .A,,2 | .A,,2 .A,,2 .A,,2 | .D,2 z4 | .[D,,D,]2 z4 | %118
 .[D,,D,]2 z4 | .[D,,D,]2 z4 | z6 | z6 | z6 | z6 | D,6- | D,6- | D,6- | D,6 | [C,,C,]2 z4 | %129
 [C,,C,]2 z4 | [C,,C,]2 z4 | [C,,C,]2 z4 | [D,,D,]2 z4 | z6 | z6 | z2 z2 D,2 | [G,,G,]2 z4 | %137
 !>!.G,.G, .G,2 z2 | !>!.F,.F, .F,2 z2 | !>!.=E,.E, .E,2 z2 | !>!.E,.E, .E,2 z2 | %141
 .D,.D, .=E,.E, .G,.G, | .F,.F, .=E,.E, .D,.D, | .=E,.E, .A,2 .[A,,E,]2 | D,,2 z4 | %145
 z2 z A,, =B,,C, | D,^C, D,F, =E,D, | G,2 z G, F,=E, | F,2 z =E, D,F, | A,2 z =E, ^F,G, | %150
 ^F,=E, F,D, E,F, | G,2 z4 | z D, =E,[D,F,] [E,G,][F,A,] | [G,B,]^F, G,B, A,G, | CC, D,E, F,^F, | %155
 G,^F, G, z z2 | .D,2 .G,2 B,2- | B,B, A,G, F,=E, | .[D,A,D].[D,A,D] .[D,F,A,DF]2 .[D,D]2 | %159
 .[A,,=E,A,C].[A,,E,C] .[A,,E,C]2 z2 | .[G,,G,D].[G,,G,D] .[G,,G,D]2 .D,2 | %161
 .[G,,G,B,D].[G,B,D] .[G,B,D]2 z2 | .[D,A,].[D,A,] .[D,A,]2 .D,,2 | .A,.A, .[=E,A,]2 .=E,,2 | %164
 .[D,A,].[D,A,] .[D,^F,A,]2 .[^F,,D,D]2 | .[G,,D,G,D].[G,,D,G,D] .[G,,D,G,D]2 .G,2 | .F,2 z2 .F,2 | %167
 .=E,2 z2 .E,2 | .E,2 z2 .E,2 | .D,2 .=E,2 .G,2 | .F,2 .=E,2 .D,2 | .F,2 z2 .F,2 | %172
 .=E,2 z2 [^C=E]2 | [=B,D]2 z2 [^C=E]2 | [A,^C]2 z2 [=B,D]2 | [^G,=B,]2 z2 [A,^C]2 | %176
 [A,^C]2 z2 [C=E]2 | [^C=E]2 z2 [DF]2 | [^C=E]2 [=B,D]2 [A,C]2 | [^C=E]2 z2 [=B,D]2 | %180
 [=B,D]2 z2 [DF]2 | [^C=E]2 z2 [DF]2 | [=B,D]2 z2 [^C=E]2 | [A,^C]2 z2 [=B,D]2 | [=B,D]2 z2 [DF]2 | %185
 [DF]2 z2 [=EG]2 | [DF]2 [^C=E]2 [=B,D]2 | [DF]2 z2 [DF]2 | [^C=E]2 z2 .[F,A,]2 | %189
 .[=E,G,]2 z2 .[F,A,]2 | .[D,F,]2 z2 .[=E,G,]2 | .[^C,=E,]2 z2 .[D,F,]2 | .[D,F,]2 z2 .[F,A,]2 | %193
 .[F,A,]2 z2 .[G,B,]2 | .[F,A,]2 .[=E,G,]2 .[D,F,]2 | .[F,A,]2 z2 .[=E,G,]2 | %196
 .[=E,G,]2 z2 .[G,B,]2 | .[F,A,]2 z2 .[G,B,]2 | .[=E,G,]2 z2 .[F,A,]2 | .[D,F,]2 z2 .[=E,G,]2 | %200
 .[=E,G,]2 z2 .[G,B,]2 | .[G,B,]2 z2 .[A,C]2 | .[G,B,]2 .[F,A,]2 .[=E,G,]2 | .[G,B,]2 z2 .[G,B,]2 | %204
[K:B] [F,=A,=D]2 z4 | z6 | z6 | z6 | z6 | z6 | z6 | z6 | z _G,_C_ECG, | z _G,_C_ECG, | %214
 z _G,_C_ECG, | z _G,_C_ECG, | z =G,=B,=DB,G, | z =G,B,=DB,G, | z =G,B,=DB,G, | z =G,B,=DB,G, | %220
 z _G,_C_ECG, | z _G,_C_ECG, | z6 | z6 | z6 | z6 | z6 | z _G,_C_ECG, | z _G,_C_ECG, | %229
 z _G,_C_ECG, | z _G,_C_ECG, | z _A,_C_FCA, | z _A,_C_FCA, | z _B,_D_FDB, | z _B,_D_FDB, | F,6- | %236
 (F,6 | =G,6-) | (G,6 | F,6-) | (F,6 | G,6-) | (G,6 | F,2) z4 | [B,,F,D]2 z4 | A,,2 z4 | %246
 [A,,F,D]2 z4 | =A,,2 z4 | [=A,,F,D]2 z4 | _A,,2 z4 | [_A,,=C_E]2 z4 |[K:Bb] [G,,,G,,G,]2 z2 G,2 | %252
 C4 C2 | =B,4 B,2 | A,2 z4 | z4 F,2 | ^A,4 A,2 | [^G,=E]4 [G,E]2 | [G,=E]4 [G,E]2 | %259
 [F,D]2 z2 [F,,F,]2 | [B,,B,]4 [B,,B,]2 | [A,,A,]4 [A,,A,]2 | [G,,G,]4 [G,,G,]2 | %263
 .[^F,,^F,]2 .[A,,A,]2 .D,2 | .[^C,^C]2 .[B,,B,]2 .[G,,G,]2 | .[^F,,^F,]2 .[A,,A,]2 .D,2 | %266
 .[^C,^C]2 .[B,,B,]2 .[G,,G,]2 | .[^F,,^F,]2 .[A,,A,]2 .D,2 | .[^C,^C]2 .[B,,B,]2 .[G,,G,]2 | %269
 .[^C,^C]2 .[B,,B,]2 .[G,,G,]2 | .[^C,^C]2 .[B,,B,]2 .[G,,G,]2 | [^C,^C]4 .[C,C]2 | z6 | %273
 [^C,^C]4 .[C,C]2 | z6 | [=B,,=B,]4 .[B,,B,]2 | z6 | [A,,A,]4 .[A,,A,]2 | z6 | %279
 [^F,,^F,]4 .[F,,F,]2 | [G,,G,]4 .[G,,G,]2 | [A,,A,]4 .[A,,A,]2 | [B,,B,]4 .[B,,B,]2 | %283
 [C,C]4 .[C,C]2 | [B,,B,]4 .[B,,B,]2 | [C,C]4 .[C,C]2 | [B,,B,]4 .[B,,B,]2 | .[C,C]2 z4 | z6 | z6 | %290
 z6 | z6 | z6 | z6 | z6 | z6 | z6 | z6 | z6 | z6 | z6 | z6 | z6 | z6 | z6 | z6 | z6 | %307
 D,D, .D,2 z2 | z6 | z6 | z4 .D,2 | .G,,2 .G,,2 z2 | z6 | z6 | z6 | z6 | z6 | z6 | %318
 z2 z2 .[G,,G,]2 | %319
 .[D,,D,^F,A,D].[D,,D,F,A,D].[D,,D,F,A,D].[D,,D,F,A,D].[D,,D,F,A,D].[D,,D,F,A,D] | %320
 .[D,,D,^F,A,D].[D,,D,F,A,D].[D,,D,F,A,D].[D,,D,F,A,D].[D,,D,F,A,D].[D,,D,F,A,D] | %321
 .[D,,D,=F,A,D].[D,,D,F,A,D].[D,,D,F,A,D].[D,,D,F,A,D].[D,,D,F,A,D].[D,,D,F,A,D] | %322
 .[D,,D,F,A,D].[D,,D,F,A,D].[D,,D,F,A,D].[D,,D,F,A,D].[D,,D,F,A,D].[D,,D,F,A,D] | %323
 .[D,,D,=E,A,^C].[D,,D,E,A,C].[D,,D,E,A,C].[D,,D,E,A,C].[D,,D,E,A,C].[D,,D,E,A,C] | %324
 .[D,,D,=E,A,^C].[D,,D,E,A,C].[D,,D,E,A,C].[D,,D,E,A,C].[D,,D,E,A,C].[D,,D,E,A,C] | %325
 .[D,,D,^F,A,=C].[D,,D,F,A,C].[D,,D,F,A,C].[D,,D,F,A,C].[D,,D,F,A,C].[D,,D,F,A,C] | %326
 .[D,,D,^F,A,C].[D,,D,F,A,C].[D,,D,F,A,C].[D,,D,F,A,C].[D,,D,F,A,C].[D,,D,F,A,C] | %327
 .[D,,D,G,=B,].[D,,D,G,B,].[D,,D,G,B,].[D,,D,G,B,].[D,,D,G,B,].[D,,D,G,B,] | %328
 .[D,,D,G,=B,].[D,,D,G,B,].[D,,D,G,B,].[D,,D,G,B,].[D,,D,G,B,].[D,,D,G,B,] | %329
 .[D,,D,G,_B,].[D,,D,G,B,].[D,,D,G,B,].[D,,D,G,B,].[D,,D,G,B,].[D,,D,G,B,] | %330
 .[D,,D,G,B,].[D,,D,G,B,].[D,,D,G,B,].[D,,D,G,B,].[D,,D,G,B,].[D,,D,G,B,] | %331
 .[D,,D,=E,A,^C].[D,,D,E,A,C].[D,,D,E,A,C].[D,,D,E,A,C].[D,,D,E,A,C].[D,,D,E,A,C] | %332
 .[D,,D,=E,A,^C].[D,,D,E,A,C].[D,,D,E,A,C].[D,,D,E,A,C].[D,,D,E,A,C].[D,,D,E,A,C] | %333
 .[D,,D,E,G,C].[D,,D,E,G,C].[D,,D,E,G,C].[D,,D,E,G,C].[D,,D,E,G,C].[D,,D,E,G,C] | %334
 .[D,,D,E,G,C].[D,,D,E,G,C].[D,,D,E,G,C].[D,,D,E,G,C].[D,,D,E,G,C].[D,,D,E,G,C] | !trill(!TD,6- | %336
 D,6- | D,6- | D,6- | D,6- | D,6- | D,6- | D,6- | !trill)!D,6- | %344
 [D,,D,] z [D,,D,][D,,D,] [D,,D,][D,,D,] | [D,,D,]2 [D,,D,]2 [D,,D,]2 | %346
 z2 [D,,D,][D,,D,] [D,,D,][D,,D,] | [D,,D,]2 [D,,D,]2 [D,,D,]2 | [D,,D,]2 z4 | [D,,D,]2 z4 | %350
 [D,,D,]2 z4 | [D,,D,]2 z4 | [D,,D,]2 z4 | !>![D,,D,]2 [D,,D,]2 [D,,D,]2 | %354
 !>![D,,D,]2 [D,,D,]2 [D,,D,]2 | !>![D,,D,]2 [D,,D,]2 [D,,D,]2 | [D,,D,]2 z4 | z6 | z6 | z6 | z6 | %361
 z6 | z6 | z6 | z6 | z6 | z6 | z6 | [G,,G,]2 [G,,G,][G,,G,] [G,,G,][G,,G,] | %369
 [G,,G,]2 [G,,G,][G,,G,] [G,,G,][G,,G,] | [G,,G,]2 [G,,G,][G,,G,] [G,,G,][G,,G,] | %371
 [G,,G,]2 [G,,G,][G,,G,] [G,,G,][G,,G,] | [G,,G,]2 [G,,G,][G,,G,] [G,,G,][G,,G,] | %373
 [G,,G,]2 [G,,G,][G,,G,] [G,,G,][G,,G,] | [A,,D,A,]2 [A,,A,][A,,A,] [A,,A,][A,,A,] | %375
 [A,,A,]2 [A,,A,][A,,A,] [A,,A,][A,,A,] | [A,,D,A,]2 [G,,D,G,][G,,D,G,] [G,,D,G,][G,,D,G,] | %377
 [G,,D,G,]2 [G,,G,][G,,G,] [G,,G,][G,,G,] | [G,,G,]2 [G,,G,][G,,G,] [G,,G,][G,,G,] | %379
 [G,,G,]2 [G,,G,][G,,G,] [G,,G,][G,,G,] | [G,,G,]2 [G,,G,][G,,G,] [G,,G,][G,,G,] | %381
 [G,,G,]2 [G,,G,][G,,G,] [G,,G,][G,,G,] | z6 | z6 | z6 | [D,,D,]2 z4 | [D,,D,]2 z4 | [D,,D,]2 z4 | %388
 [D,,D,]2 [D,,D,][D,,D,] [D,,D,][D,,D,] | [C,,D,,C,D,]2 [D,,D,][D,,D,] [D,,D,][D,,D,] | %390
 [C,,D,,C,D,]2 [D,,D,][D,,D,] [D,,D,][D,,D,] | [C,,D,,C,D,]2 [D,,D,][D,,D,] [D,,D,][D,,D,] | %392
 [D,,F,,B,,D,]2 z4 | [B,,B,]2 [B,,B,]2 z2 | [C,C]2 [C,C]2 z2 | [^F,,^F,]2 [F,,F,]2 z2 | %396
 [G,,G,]2 [G,,G,]2 z2 | [C,,C,]2 [C,,C,]2 z2 | [D,,D,]2 [D,,D,]2 z2 | [D,,A,,D,]2 [D,,A,,D,]2 z2 | %400
 [G,,G,][G,,G,] [G,,G,]2 z2 | [B,,B,]2 [B,,B,]2 z2 | [C,C]2 [C,C]2 z2 | [^F,,^F,]2 [F,,F,]2 z2 | %404
 [G,,G,]2 [G,,G,]2 z2 | [C,,C,]2 [C,,C,]2 z2 | [D,,D,]2 [D,,D,]2 z2 | [D,,A,,D,]2 [D,,A,,D,]2 z2 | %408
 [D,,D,]2 [D,,D,]2 z2 | [D,,A,,D,]2 [D,,A,,D,]2 z2 | [D,,D,]2 [D,,D,]2 z2 | %411
 [D,,A,,D,]2 [D,,A,,D,]2 z2 | [D,,A,,D,]2 [D,,A,,D,]2 z2 | [D,,^F,,A,,D,]2 [D,,F,,A,,D,]2 z2 | %414
 [G,,,G,,]2 [B,,,B,,]2 [C,,C,]2 | [F,,,F,,]2 [A,,,A,,]2 [B,,,B,,]2 | %416
 [E,,,E,,]2 [G,,,G,,]2 [_A,,,_A,,]2 | [C,C][C,C] [C,C][C,C] [C,C]2 | [D,D][D,D] [D,D][D,D] [D,D]2 | %419
 [G,,,G,,]2 [B,,,B,,]2 [C,,C,]2 | [F,,,F,,]2 [A,,,A,,]2 [B,,,B,,]2 | %421
 [E,,,E,,]2 [G,,,G,,]2 [_A,,,_A,,]2 | [C,,C,][C,,C,] [C,,C,][C,,C,] [C,,C,]2 | %423
 [D,,D,][D,,D,] [D,,D,][D,,D,] [D,,D,]2 | [G,,,G,,]2 z4 | [C,,C,]2 z4 | [G,,,G,,]2 z4 | %427
 [C,,C,]2 z4 | [G,B,D]2 z4 | [G,B,D]2 z4 | [G,B,D]2 z4 | [G,B,D]2 [G,B,D]2 [G,B,D]2 | %432
 [G,B,D]2 [G,B,D]2 [G,B,D]2 | [G,B,D]2 [G,B,D]2 [G,B,D]2 | [G,B,D]2 [G,B,D]2 [G,B,D]2 | %435
 [G,B,D]2 [G,B,D]2 [G,B,D]2 || z6 | z6 | z6 | z6 | z6 | z6 | z6 | z2 .G,,.G,, .G,,.G,, | %444
 G,,2 G,,2 G,,2 | z2 G,,G,, G,,G,, | G,,2 G,,2 G,,2 | z2 G,,2 G,,2 | z2 G,,2 G,,2 | z2 z2 G,,2 | %450
 z2 z2 G,,2 | z2 z2 G,,2 | !fermata!z6 | [G,,G,]6- | [G,,G,]6- | [G,,G,]6- | [G,,-G,]6 | %457
 [G,,_A,]6- | [G,,A,]6- | [G,,A,]6- | [G,,A,-]6 | [_F,,A,]6- | [F,,A,]2 z4 | z6 | z6 | z6 | z6 | %467
 z2 .[G,,G,].[B,,B,] .[A,,A,].[B,,B,] | ([A,,A,][G,,G,]) .[G,,G,].[A,,A,] .[B,,B,].[G,,G,] | %469
 .[D,D] z z4 | z6 | z2 z2 .G,,,2 | .A,,,2 .B,,,2 .G,,,2 | .D,,2 z4 | z6 | z6 |] %476
V:8
 x6 | x6 | x6 | x6 | x6 | x6 | x6 | x6 | x6 | x6 | x6 | x6 | x6 | x6 | x6 | x6 | x6 | x6 | x6 | %19
 x6 | x6 | x6 | x6 | x6 | x6 | x6 | x6 | x6 | x6 | x6 | x6 | x6 | x2[K:bass] x4 | x6 | x6 | x6 | %36
 x6 | x6 | x6 | x6 | x6 | x6 | x6 | x6 | x6 | x6 | x6 | x6 | x6 |[K:treble] x6 | x6 | x6 | x6 | %53
 x6 | x6 | x6 | x6 | x6 | x6 |[K:bass] x6 | x6 | x6 | x6 | x6 |[K:treble] x6 | x6 | x6 | x6 | x6 | %69
 x6 | x6 | x6 | x6 | x6 | x6 | x6 | x6 | x6 | x6 | x6 | x6 | x6 | x6 | x6 | x6 | x6 | x6 | x6 | %88
 x6 | x6 | x6 | x6 | x6 | x6 | x6 | x6 | x6 | x6 | x6 | x6 | x6 | x6 | x6 | x6 | x6 | x6 | x6 | %107
 x6 | x6 | x6 | x6 | x6 | x6 | x6 | x6 | x6 | x6 | x6 | x6 | x6 | x6 | x6 | x6 | x6 | x6 | x6 | %126
 x6 | x6 | x6 | x6 | x6 | x6 | d2 x4 | x6 | x6 | x6 | x6 | x6 | x6 | x6 | x6 | x6 | x6 | x6 | %144
[K:bass] x6 | x6 |[K:treble] x6 | x6 | x6 | x6 | x6 | x6 | x6 | x6 | x6 | x6 | x6 | x6 | x6 | x6 | %160
 x6 | x6 | x6 | x6 | x6 | x6 | x6 | x6 | x6 | x6 | x6 | x6 | x6 | x6 | x6 | x6 | x6 | x6 | x6 | %179
 x6 | x6 | x6 | x6 | x6 | x6 | x6 | x6 | x6 | x6 | x6 | x6 | x6 | x6 | x6 | x6 | x6 | x6 | x6 | %198
 x6 | x6 | x6 | x6 | x6 | x6 |[K:B] x6 | x6 | x6 | x6 | x6 | x6 | x6 | x6 | x6 | x6 | x6 | x6 | %216
 x6 | x6 | x6 | x6 | x6 | x6 | x6 | x6 | x6 | x6 | x6 | x6 | x6 | x6 | x6 | x6 | x6 | x6 | x6 | %235
 x6 | x6 | x6 | x6 | x6 | x6 | x6 | x6 | x6 | x6 | x6 | x6 | x6 | x6 | x6 | x6 |[K:Bb] x6 | x6 | %253
 x6 | x6 | x6 | x6 | x6 | x6 | x6 | x6 | x6 | x6 | x6 | x6 | x6 | x6 | x6 | x6 | x6 | x6 | x6 | %272
 x6 | x6 | x6 | x6 | x6 | x6 | x6 | x6 | x6 | x6 | x6 | x6 | x6 | x6 | x6 | x6 | x6 | x6 | x6 | %291
 x6 | x6 | x6 | x6 | x6 | x6 | x6 | x6 | x6 | x6 | x6 | x6 | x6 | x6 | x6 | x6 | x6 | x6 | x6 | %310
 x6 | x6 | x6 | x6 | x6 | x6 | x6 | x6 | x6 | x6 | x6 | x6 | x6 | x6 | x6 | x6 | x6 | x6 | x6 | %329
 x6 | x6 | x6 | x6 | x6 | x6 | x6 | x6 | x6 | x6 | x6 | x6 | x6 | x6 | x6 | x6 | x6 | x6 | x6 | %348
 x6 | x6 | x6 | x6 | x6 | x6 | x6 | x6 |[K:bass] x6 | x6 | x6 | x6 | x6 | x6 | x6 | x6 | x6 | x6 | %366
 x6 | x6 |[K:treble] x6 | x6 | x6 | x6 | x6 | x6 | x6 | x6 | x6 | x6 | x6 | x6 | x6 | x6 | x6 | %383
 x6 | x6 | x6 | x6 | x6 | x6 | x6 | x6 | x6 | x6 | x6 | x6 | x6 | x6 | x6 | x6 | x6 | x6 | x6 | %402
 x6 | x6 | x6 | x6 | x6 | x6 | x6 | x6 | x6 | x6 | x6 | x6 | x6 | x6 | x6 | x6 | x6 | x6 | x6 | %421
 x6 | x6 | x6 | x6 | x6 | x6 | x6 | x6 | x6 | x6 | x6 | x6 | x6 | x6 | x6 || x6 | x6 | x6 | x6 | %440
 x6 | x6 | x6 | x6 | x6 | x6 | x6 | x6 | x6 | x6 | x6 | x6 | x6 | x6 | x6 | x6 | x6 | x6 | x6 | %459
 x6 | x6 | x6 | x6 | x6 | x6 | x6 | x6 | x6 | x6 | x6 | x6 | x6 | x6 | x6 | x6 | x6 |] %476

